;FLAVOR:Marlin
;TIME:3775
;Filament used: 2.74743m
;Layer height: 0.2
;MINX:92.7
;MINY:100.2
;MINZ:0.2
;MAXX:142.3
;MAXY:134.8
;MAXZ:10
;TARGET_MACHINE.NAME:Creality Ender-3
;Generated with Cura_SteamEngine 5.5.0
M140 S70
M105
M190 S70
M104 S240
M105
M109 S240
M82 ;absolute extrusion mode
; Ender 3 Custom Start G-code
G92 E0 ; Reset Extruder
G28 ; Home all axes
G1 Z2.0 F3000 ; Move Z Axis up little to prevent scratching of Heat Bed
G1 X0.1 Y20 Z0.3 F5000.0 ; Move to start position
G1 X0.1 Y200.0 Z0.3 F1500.0 E15 ; Draw the first line
G1 X0.4 Y200.0 Z0.3 F5000.0 ; Move to side a little
G1 X0.4 Y20 Z0.3 F1500.0 E30 ; Draw the second line
G92 E0 ; Reset Extruder
G1 Z2.0 F3000 ; Move Z Axis up little to prevent scratching of Heat Bed
G1 X5 Y20 Z0.3 F5000.0 ; Move over to prevent blob squish
G92 E0
G92 E0
G1 F2700 E-5
;LAYER_COUNT:50
;LAYER:0
M107
;MESH:frame_35.stl
G0 F6000 X105.408 Y130.545 Z0.2
;TYPE:WALL-INNER
G1 F2700 E0
G1 F900 X105.06 Y130.39 E0.01267
G1 X104.786 Y130.166 E0.02444
G1 X104.593 Y129.912 E0.03505
G1 X104.475 Y129.655 E0.04446
G1 X104.4 Y129.35 E0.0549
G1 X104.4 Y105.65 E0.84317
G1 X104.475 Y105.345 E0.85362
G1 X104.593 Y105.088 E0.86302
G1 X104.786 Y104.834 E0.87363
G1 X105.06 Y104.611 E0.88538
G1 X105.408 Y104.455 E0.89807
G1 X105.8 Y104.4 E0.91123
G1 X129.2 Y104.4 E1.68952
G1 X129.592 Y104.455 E1.70268
G1 X129.94 Y104.61 E1.71536
G1 X130.214 Y104.834 E1.72713
G1 X130.407 Y105.088 E1.73774
G1 X130.525 Y105.345 E1.74714
G1 X130.6 Y105.65 E1.75759
G1 X130.6 Y129.35 E2.54585
G1 X130.525 Y129.655 E2.5563
G1 X130.407 Y129.912 E2.56571
G1 X130.214 Y130.166 E2.57632
G1 X129.94 Y130.389 E2.58807
G1 X129.592 Y130.545 E2.60075
G1 X129.2 Y130.6 E2.61392
G1 X105.8 Y130.6 E3.3922
G1 X105.408 Y130.545 E3.40537
G0 F6000 X129.48 Y130.161
G1 F900 X129.2 Y130.2 E3.41477
G1 X105.8 Y130.2 E4.19306
G1 X105.52 Y130.161 E4.20246
G1 X105.271 Y130.05 E4.21153
G1 X105.076 Y129.89 E4.21992
G1 X104.938 Y129.709 E4.22749
G1 X104.8 Y129.31 E4.24153
G1 X104.8 Y105.691 E5.0271
G1 X104.938 Y105.292 E5.04115
G1 X105.075 Y105.11 E5.04872
G1 X105.271 Y104.95 E5.05714
G1 X105.52 Y104.839 E5.0662
G1 X105.8 Y104.8 E5.07561
G1 X129.2 Y104.8 E5.85389
G1 X129.48 Y104.839 E5.8633
G1 X129.729 Y104.95 E5.87236
G1 X129.924 Y105.11 E5.88075
G1 X130.062 Y105.291 E5.88832
G1 X130.2 Y105.69 E5.90237
G1 X130.2 Y129.309 E6.68794
G1 X130.062 Y129.708 E6.70198
G1 X129.925 Y129.89 E6.70956
G1 X129.729 Y130.05 E6.71797
G1 X129.48 Y130.161 E6.72704
G0 F6000 X129.317 Y129.8
G1 F900 X105.683 Y129.8 E7.51311
G1 X105.483 Y129.71 E7.5204
G1 X105.283 Y129.505 E7.52993
G1 X105.2 Y129.264 E7.53841
G1 X105.2 Y105.737 E8.32092
G1 X105.283 Y105.495 E8.32943
G1 X105.483 Y105.29 E8.33895
G1 X105.683 Y105.2 E8.34625
G1 X129.317 Y105.2 E9.13232
G1 X129.517 Y105.29 E9.13961
G1 X129.717 Y105.495 E9.14914
G1 X129.8 Y105.736 E9.15762
G1 X129.8 Y129.263 E9.94013
G1 X129.717 Y129.505 E9.94864
G1 X129.517 Y129.71 E9.95816
G1 X129.317 Y129.8 E9.96546
G1 F2700 E4.96546
G0 F6000 X129.317 Y130.1
G0 X130.562 Y130.003
G0 X130.56 Y133.418
G0 X138.464 Y133.6
G1 F2700 E9.96546
G1 F900 X138.819 Y133.582 E9.97728
G1 X139.195 Y133.507 E9.99003
G1 X139.488 Y133.402 E10.00038
G1 X139.781 Y133.264 E10.01115
G1 X140.04 Y133.091 E10.02151
G1 X140.246 Y132.921 E10.0304
G1 X140.474 Y132.695 E10.04108
G1 X140.656 Y132.45 E10.05123
G1 X140.792 Y132.222 E10.06006
G1 X140.927 Y131.937 E10.07054
G1 X141.057 Y131.51 E10.08539
G1 X141.095 Y131.125 E10.09826
G1 X141.099 Y104.032 E10.99937
G1 X141.081 Y103.628 E11.01283
G1 X140.949 Y103.11 E11.0306
G1 X140.764 Y102.719 E11.04499
G1 X140.59 Y102.46 E11.05537
G1 X140.421 Y102.254 E11.06423
G1 X140.195 Y102.026 E11.07491
G1 X139.95 Y101.845 E11.08504
G1 X139.721 Y101.707 E11.09393
G1 X139.44 Y101.574 E11.10427
G1 X139.131 Y101.481 E11.11501
G1 X138.886 Y101.431 E11.12332
G1 X138.625 Y101.405 E11.13205
G1 X96.536 Y101.401 E12.53193
G1 X96.246 Y101.414 E12.54159
G1 X95.998 Y101.452 E12.54993
G1 X95.609 Y101.551 E12.56328
G1 X95.217 Y101.736 E12.5777
G1 X94.956 Y101.911 E12.58815
G1 X94.754 Y102.078 E12.59687
G1 X94.526 Y102.306 E12.60759
G1 X94.343 Y102.553 E12.61782
G1 X94.208 Y102.778 E12.62654
G1 X94.099 Y103.01 E12.63507
G1 X93.994 Y103.301 E12.64536
G1 X93.931 Y103.615 E12.65601
G1 X93.905 Y103.877 E12.66477
G1 X93.9 Y130.967 E13.56579
G1 X93.915 Y131.248 E13.57515
G1 X93.952 Y131.5 E13.58362
G1 X94.05 Y131.888 E13.59693
G1 X94.237 Y132.283 E13.61146
G1 X94.411 Y132.542 E13.62184
G1 X94.579 Y132.747 E13.63066
G1 X94.803 Y132.972 E13.64122
G1 X95.053 Y133.157 E13.65156
G1 X95.275 Y133.291 E13.66018
G1 X95.56 Y133.426 E13.67067
G1 X95.869 Y133.519 E13.68141
G1 X96.114 Y133.569 E13.68972
G1 X96.375 Y133.594 E13.69844
G1 X138.464 Y133.6 E15.09833
G0 F6000 X138.473 Y134
G1 F900 X138.868 Y133.98 E15.11148
G1 X139.302 Y133.894 E15.1262
G1 X139.641 Y133.772 E15.13818
G1 X139.979 Y133.613 E15.15061
G1 X140.279 Y133.412 E15.16262
G1 X140.514 Y133.219 E15.17273
G1 X140.778 Y132.958 E15.18508
G1 X140.989 Y132.672 E15.1969
G1 X141.145 Y132.412 E15.20698
G1 X141.301 Y132.082 E15.21912
G1 X141.409 Y131.726 E15.2315
G1 X141.465 Y131.447 E15.24096
G1 X141.495 Y131.145 E15.25106
G1 X141.499 Y104.023 E16.15314
G1 X141.484 Y103.707 E16.16366
G1 X141.441 Y103.42 E16.17331
G1 X141.358 Y103.096 E16.18444
G1 X141.272 Y102.857 E16.19288
G1 X141.113 Y102.521 E16.20525
G1 X140.912 Y102.221 E16.21726
G1 X140.718 Y101.986 E16.22739
G1 X140.458 Y101.723 E16.23969
G1 X140.172 Y101.512 E16.25152
G1 X139.91 Y101.354 E16.26169
G1 X139.584 Y101.2 E16.27368
G1 X139.229 Y101.092 E16.28602
G1 X138.945 Y101.035 E16.29566
G1 X138.644 Y101.005 E16.30572
G1 X96.526 Y101.001 E17.70657
G1 X96.207 Y101.016 E17.71719
G1 X95.919 Y101.059 E17.72688
G1 X95.596 Y101.141 E17.73796
G1 X95.357 Y101.228 E17.74642
G1 X95.019 Y101.388 E17.75886
G1 X94.718 Y101.589 E17.7709
G1 X94.484 Y101.781 E17.78096
G1 X94.222 Y102.045 E17.79333
G1 X94.01 Y102.331 E17.80518
G1 X93.855 Y102.59 E17.81521
G1 X93.729 Y102.857 E17.82503
G1 X93.608 Y103.193 E17.83691
G1 X93.535 Y103.556 E17.84923
G1 X93.505 Y103.857 E17.85929
G1 X93.5 Y130.977 E18.7613
G1 X93.516 Y131.288 E18.77166
G1 X93.559 Y131.579 E18.78144
G1 X93.642 Y131.905 E18.79263
G1 X93.728 Y132.143 E18.80105
G1 X93.888 Y132.481 E18.81349
G1 X94.089 Y132.781 E18.8255
G1 X94.282 Y133.015 E18.83559
G1 X94.541 Y133.275 E18.84779
G1 X94.83 Y133.49 E18.85977
G1 X95.086 Y133.644 E18.86971
G1 X95.415 Y133.8 E18.88182
G1 X95.771 Y133.907 E18.89418
G1 X96.055 Y133.965 E18.90383
G1 X96.355 Y133.994 E18.91385
G1 X138.473 Y134 E20.3147
G0 F6000 X138.483 Y134.4
G1 F900 X138.917 Y134.378 E20.32915
G1 X139.409 Y134.281 E20.34583
G1 X139.795 Y134.142 E20.35948
G1 X140.177 Y133.962 E20.37352
G1 X140.518 Y133.733 E20.38719
G1 X140.783 Y133.516 E20.39858
G1 X141.081 Y133.22 E20.41255
G1 X141.322 Y132.894 E20.42603
G1 X141.498 Y132.601 E20.4374
G1 X141.675 Y132.227 E20.45116
G1 X141.798 Y131.823 E20.46521
G1 X141.861 Y131.506 E20.47596
G1 X141.895 Y131.164 E20.48739
G1 X141.899 Y104.013 E21.39043
G1 X141.883 Y103.668 E21.40192
G1 X141.834 Y103.341 E21.41292
G1 X141.741 Y102.978 E21.42538
G1 X141.642 Y102.703 E21.4351
G1 X141.462 Y102.323 E21.44909
G1 X141.233 Y101.982 E21.46275
G1 X141.016 Y101.717 E21.47414
G1 X140.72 Y101.419 E21.48811
G1 X140.394 Y101.178 E21.5016
G1 X140.099 Y101.001 E21.51304
G1 X139.729 Y100.826 E21.52665
G1 X139.327 Y100.704 E21.54062
G1 X139.005 Y100.639 E21.55155
G1 X138.664 Y100.605 E21.56295
G1 X96.517 Y100.601 E22.96476
G1 X96.168 Y100.617 E22.97638
G1 X95.839 Y100.666 E22.98745
G1 X95.478 Y100.759 E22.99985
G1 X95.203 Y100.858 E23.00957
G1 X94.821 Y101.039 E23.02363
G1 X94.479 Y101.268 E23.03732
G1 X94.215 Y101.485 E23.04868
G1 X93.918 Y101.783 E23.06268
G1 X93.677 Y102.108 E23.07613
G1 X93.501 Y102.401 E23.0875
G1 X93.359 Y102.704 E23.09863
G1 X93.221 Y103.086 E23.11214
G1 X93.139 Y103.497 E23.12608
G1 X93.105 Y103.838 E23.13748
G1 X93.1 Y130.987 E24.04046
G1 X93.117 Y131.327 E24.05178
G1 X93.167 Y131.657 E24.06288
G1 X93.259 Y132.022 E24.0754
G1 X93.358 Y132.297 E24.08512
G1 X93.539 Y132.679 E24.09918
G1 X93.768 Y133.02 E24.11284
G1 X93.985 Y133.284 E24.12421
G1 X94.279 Y133.579 E24.13806
G1 X94.607 Y133.822 E24.15164
G1 X94.896 Y133.997 E24.16287
G1 X95.271 Y134.174 E24.17667
G1 X95.673 Y134.296 E24.19064
G1 X95.995 Y134.361 E24.20157
G1 X96.336 Y134.394 E24.21296
G1 X138.483 Y134.4 E25.61478
G0 F6000 X138.493 Y134.8
;TYPE:WALL-OUTER
G1 F900 X138.966 Y134.776 E25.63053
G1 X139.516 Y134.667 E25.64918
G1 X139.948 Y134.512 E25.66444
G1 X140.375 Y134.311 E25.68014
G1 X140.757 Y134.055 E25.69543
G1 X141.051 Y133.813 E25.7081
G1 X141.385 Y133.482 E25.72374
G1 X141.655 Y133.116 E25.73887
G1 X141.851 Y132.79 E25.75152
G1 X142.049 Y132.371 E25.76693
G1 X142.186 Y131.921 E25.78258
G1 X142.257 Y131.564 E25.79468
G1 X142.295 Y131.184 E25.80738
G1 X142.299 Y104.003 E26.71143
G1 X142.281 Y103.628 E26.72391
G1 X142.226 Y103.262 E26.73622
G1 X142.124 Y102.86 E26.75002
G1 X142.012 Y102.549 E26.76101
G1 X141.811 Y102.125 E26.77662
G1 X141.555 Y101.743 E26.79191
G1 X141.313 Y101.449 E26.80458
G1 X140.982 Y101.115 E26.82022
G1 X140.616 Y100.845 E26.83535
G1 X140.288 Y100.648 E26.84807
G1 X139.873 Y100.452 E26.86334
G1 X139.425 Y100.316 E26.87891
G1 X139.064 Y100.243 E26.89116
G1 X138.684 Y100.205 E26.90386
G1 X96.507 Y100.201 E28.30667
G1 X96.128 Y100.219 E28.31929
G1 X95.76 Y100.274 E28.33167
G1 X95.36 Y100.376 E28.3454
G1 X95.049 Y100.488 E28.35639
G1 X94.623 Y100.69 E28.37207
G1 X94.241 Y100.946 E28.38737
G1 X93.946 Y101.188 E28.40006
G1 X93.614 Y101.521 E28.4157
G1 X93.344 Y101.886 E28.4308
G1 X93.148 Y102.212 E28.44345
G1 X92.989 Y102.55 E28.45588
G1 X92.835 Y102.978 E28.471
G1 X92.743 Y103.438 E28.48661
G1 X92.705 Y103.818 E28.49931
G1 X92.7 Y130.997 E29.40329
G1 X92.719 Y131.367 E29.41561
G1 X92.774 Y131.736 E29.42802
G1 X92.876 Y132.14 E29.44188
G1 X92.988 Y132.451 E29.45287
G1 X93.19 Y132.877 E29.46855
G1 X93.446 Y133.259 E29.48385
G1 X93.688 Y133.553 E29.49651
G1 X94.017 Y133.883 E29.51201
G1 X94.384 Y134.155 E29.5272
G1 X94.707 Y134.35 E29.53975
G1 X95.127 Y134.548 E29.5552
G1 X95.575 Y134.684 E29.57077
G1 X95.936 Y134.757 E29.58302
G1 X96.316 Y134.794 E29.59572
G1 X138.493 Y134.8 E30.99853
G1 F2700 E25.99853
G0 F6000 X138.479 Y134.101
G0 X105.757 Y133.415
G0 X105.801 Y130.781
G0 X105.759 Y130.1
G0 X105.759 Y129.4
G1 F2700 E30.99853
G1 F900 X105.602 Y129.283 E31.00504
G1 X105.602 Y105.715 E31.78892
G1 X105.765 Y105.602 E31.79551
G1 X129.241 Y105.6 E32.57633
G1 X129.398 Y105.717 E32.58284
G1 X129.398 Y129.285 E33.36671
G1 X129.235 Y129.398 E33.37331
G1 X105.759 Y129.4 E34.15413
G1 F2700 E29.15413
G0 F6000 X105.759 Y130.1
G0 X129.2 Y130.781
G0 X129.198 Y133.418
G0 X138.461 Y133.499
G0 X138.453 Y133.24
;TYPE:SKIN
G1 F2700 E34.15413
G1 F900 X96.396 Y133.233 E35.55295
G1 X96.064 Y133.201 E35.56404
G1 X95.694 Y133.089 E35.5769
G1 X95.349 Y132.929 E35.58955
G1 X95.044 Y132.7 E35.60223
G1 X94.757 Y132.414 E35.61571
G1 X94.554 Y132.111 E35.62784
G1 X94.391 Y131.764 E35.64059
G1 X94.28 Y131.323 E35.65572
G1 X94.26 Y130.959 E35.66784
G1 X94.265 Y103.786 E36.57162
G1 X94.366 Y103.276 E36.58891
G1 X94.708 Y102.637 E36.61302
G1 X95.08 Y102.261 E36.63061
G1 X95.388 Y102.055 E36.64293
G1 X95.727 Y101.895 E36.6554
G1 X96.176 Y101.78 E36.67082
G1 X96.548 Y101.762 E36.6832
G1 X138.601 Y101.765 E38.08189
G1 X138.937 Y101.8 E38.09313
G1 X139.306 Y101.912 E38.10595
G1 X139.655 Y102.074 E38.11875
G1 X139.953 Y102.296 E38.13111
G1 X140.243 Y102.587 E38.14478
G1 X140.446 Y102.89 E38.15691
G1 X140.607 Y103.229 E38.16939
G1 X140.722 Y103.682 E38.18493
G1 X140.738 Y104.052 E38.19725
G1 X140.735 Y131.096 E39.09674
G1 X140.667 Y131.551 E39.11204
G1 X140.591 Y131.801 E39.12073
G1 X140.423 Y132.158 E39.13385
G1 X140.204 Y132.453 E39.14607
G1 X139.915 Y132.741 E39.15964
G1 X139.609 Y132.947 E39.17191
G1 X139.347 Y133.07 E39.18154
G1 X139.103 Y133.158 E39.19017
G1 X138.776 Y133.223 E39.20125
G1 X138.453 Y133.24 E39.21201
G1 F2700 E34.21201
G0 F6000 X138.461 Y133.499
G0 X129.551 Y133.418
G0 X129.335 Y130.788
G0 X129.601 Y130.927
G1 F2700 E39.21201
G1 F900 X130.131 Y130.698 E39.23122
G1 X130.491 Y130.396 E39.24684
G1 X130.726 Y130.078 E39.26
G1 X130.859 Y129.791 E39.27052
G1 X130.955 Y129.414 E39.28346
G1 X130.955 Y105.585 E40.07601
G1 X130.872 Y105.245 E40.08765
G1 X130.726 Y104.922 E40.09944
G1 X130.491 Y104.604 E40.11259
G1 X130.132 Y104.302 E40.1282
G1 X129.692 Y104.106 E40.14422
G1 X129.223 Y104.041 E40.15997
G1 X105.789 Y104.04 E40.93938
G1 X105.399 Y104.073 E40.9524
G1 X104.869 Y104.302 E40.9716
G1 X104.509 Y104.604 E40.98723
G1 X104.274 Y104.922 E41.00038
G1 X104.141 Y105.209 E41.01091
G1 X104.045 Y105.585 E41.02381
G1 X104.045 Y129.416 E41.81643
G1 X104.128 Y129.754 E41.82801
G1 X104.274 Y130.078 E41.83983
G1 X104.509 Y130.396 E41.85298
G1 X104.868 Y130.698 E41.86858
G1 X105.308 Y130.894 E41.88461
G1 X105.777 Y130.959 E41.90035
G1 X129.211 Y130.96 E42.67977
G1 X129.601 Y130.927 E42.69279
G1 F2700 E37.69279
G0 F6000 X129.553 Y130.67
G0 X130.028 Y130.028
G0 X130.781 Y105.629
G0 X130.783 Y101.585
G0 X138.972 Y101.601
G0 X139.946 Y101.967
G0 X139.672 Y102.337
G1 F2700 E42.69279
G1 F900 X140.165 Y102.83 E42.71598
G0 F6000 X140.524 Y103.755
G1 F900 X138.751 Y101.981 E42.7994
G0 F6000 X138.168 Y101.964
G1 F900 X140.536 Y104.332 E42.91078
G0 F6000 X140.536 Y104.898
G1 F900 X137.602 Y101.964 E43.04879
G0 F6000 X137.037 Y101.964
G1 F900 X140.536 Y105.464 E43.21339
G0 F6000 X140.536 Y106.029
G1 F900 X136.471 Y101.964 E43.4046
G0 F6000 X135.905 Y101.964
G1 F900 X140.536 Y106.595 E43.62243
G0 F6000 X140.536 Y107.161
G1 F900 X135.34 Y101.964 E43.86686
G0 F6000 X134.774 Y101.964
G1 F900 X140.536 Y107.727 E44.13791
G0 F6000 X140.536 Y108.292
G1 F900 X134.208 Y101.964 E44.43556
G0 F6000 X133.643 Y101.964
G1 F900 X140.536 Y108.858 E44.7598
G0 F6000 X140.536 Y109.424
G1 F900 X133.077 Y101.964 E45.11068
G0 F6000 X132.511 Y101.964
G1 F900 X140.536 Y109.989 E45.48815
G0 F6000 X140.536 Y110.555
G1 F900 X131.946 Y101.964 E45.89222
G0 F6000 X131.38 Y101.964
G1 F900 X140.536 Y111.12 E46.32289
G0 F6000 X140.536 Y111.686
G1 F900 X130.814 Y101.964 E46.78018
G0 F6000 X130.249 Y101.964
G1 F900 X140.536 Y112.251 E47.26405
G0 F6000 X140.536 Y112.817
G1 F900 X129.682 Y101.964 E47.77457
G0 F6000 X129.116 Y101.964
G1 F900 X140.536 Y113.383 E48.3117
G0 F6000 X140.536 Y113.948
G1 F900 X128.551 Y101.964 E48.87542
G0 F6000 X127.985 Y101.964
G1 F900 X130.08 Y104.058 E48.97394
G0 F6000 X129.306 Y103.85
G1 F900 X127.419 Y101.964 E49.06267
G0 F6000 X126.854 Y101.964
G1 F900 X128.732 Y103.842 E49.15101
G0 F6000 X128.166 Y103.842
G1 F900 X126.288 Y101.964 E49.23934
G0 F6000 X125.722 Y101.964
G1 F900 X127.6 Y103.842 E49.32768
G0 F6000 X127.035 Y103.842
G1 F900 X125.157 Y101.964 E49.41601
G0 F6000 X124.591 Y101.964
G1 F900 X126.469 Y103.842 E49.50435
G0 F6000 X125.903 Y103.842
G1 F900 X124.025 Y101.964 E49.59268
G0 F6000 X123.46 Y101.964
G1 F900 X125.338 Y103.842 E49.68102
G0 F6000 X124.772 Y103.842
G1 F900 X122.894 Y101.964 E49.76936
G0 F6000 X122.328 Y101.964
G1 F900 X124.206 Y103.842 E49.85769
G0 F6000 X123.641 Y103.842
G1 F900 X121.762 Y101.963 E49.94607
G0 F6000 X121.196 Y101.963
G1 F900 X123.075 Y103.842 E50.03446
G0 F6000 X122.509 Y103.842
G1 F900 X120.631 Y101.963 E50.12281
G0 F6000 X120.065 Y101.963
G1 F900 X121.944 Y103.842 E50.2112
G0 F6000 X121.377 Y103.841
G1 F900 X119.499 Y101.963 E50.29953
G0 F6000 X118.933 Y101.963
G1 F900 X120.812 Y103.841 E50.38789
G0 F6000 X120.246 Y103.841
G1 F900 X118.368 Y101.963 E50.47623
G0 F6000 X117.802 Y101.963
G1 F900 X119.68 Y103.841 E50.56456
G0 F6000 X119.114 Y103.841
G1 F900 X117.236 Y101.963 E50.6529
G0 F6000 X116.671 Y101.963
G1 F900 X118.549 Y103.841 E50.74123
G0 F6000 X117.983 Y103.841
G1 F900 X116.105 Y101.963 E50.82957
G0 F6000 X115.539 Y101.963
G1 F900 X117.417 Y103.841 E50.9179
G0 F6000 X116.852 Y103.841
G1 F900 X114.974 Y101.963 E51.00624
G0 F6000 X114.408 Y101.963
G1 F900 X116.286 Y103.841 E51.09457
G0 F6000 X115.72 Y103.841
G1 F900 X113.842 Y101.963 E51.18291
G0 F6000 X113.276 Y101.962
G1 F900 X115.155 Y103.841 E51.27129
G0 F6000 X114.589 Y103.841
