;FLAVOR:Marlin
;TIME:627
;Filament used: 0.419885m
;Layer height: 0.2
;MINX:106.2
;MINY:106.2
;MINZ:0.2
;MAXX:128.8
;MAXY:128.8
;MAXZ:3
;TARGET_MACHINE.NAME:Creality Ender-3
;Generated with Cura_SteamEngine 5.5.0
M140 S70
M105
M190 S70
M104 S240
M105
M109 S240
M82 ;absolute extrusion mode
; Ender 3 Custom Start G-code
G92 E0 ; Reset Extruder
G28 ; Home all axes
G1 Z2.0 F3000 ; Move Z Axis up little to prevent scratching of Heat Bed
G1 X0.1 Y20 Z0.3 F5000.0 ; Move to start position
G1 X0.1 Y200.0 Z0.3 F1500.0 E15 ; Draw the first line
G1 X0.4 Y200.0 Z0.3 F5000.0 ; Move to side a little
G1 X0.4 Y20 Z0.3 F1500.0 E30 ; Draw the second line
G92 E0 ; Reset Extruder
G1 Z2.0 F3000 ; Move Z Axis up little to prevent scratching of Heat Bed
G1 X5 Y20 Z0.3 F5000.0 ; Move over to prevent blob squish
G92 E0
G92 E0
G1 F2700 E-5
;LAYER_COUNT:15
;LAYER:0
M107
;MESH:sensor_holder_closer.stl
G0 F6000 X121.4 Y127.6 Z0.2
;TYPE:WALL-INNER
G1 F2700 E0
G1 F900 X127.6 Y127.6 E0.20621
G1 X127.6 Y107.4 E0.87807
G1 X107.4 Y107.4 E1.54992
G1 X107.4 Y127.6 E2.22178
G1 X113.6 Y127.6 E2.42799
G1 X113.603 Y122.377 E2.60171
G1 X113.638 Y121.961 E2.61559
G1 X113.712 Y121.568 E2.62889
G1 X113.838 Y121.16 E2.6431
G1 X113.989 Y120.802 E2.65602
G1 X114.218 Y120.381 E2.67196
G1 X114.517 Y119.989 E2.68836
G1 X114.797 Y119.689 E2.70201
G1 X115.094 Y119.431 E2.71509
G1 X115.44 Y119.188 E2.72915
G1 X115.808 Y118.976 E2.74328
G1 X116.366 Y118.768 E2.76309
G1 X116.744 Y118.673 E2.77605
G1 X117.278 Y118.602 E2.79397
G1 X117.782 Y118.61 E2.81073
G1 X118.173 Y118.659 E2.82384
G1 X118.583 Y118.753 E2.83783
G1 X118.971 Y118.889 E2.8515
G1 X119.325 Y119.054 E2.86449
G1 X119.635 Y119.23 E2.87635
G1 X120.011 Y119.517 E2.89208
G1 X120.311 Y119.797 E2.90573
G1 X120.483 Y119.989 E2.9143
G1 X120.772 Y120.37 E2.93021
G1 X121.033 Y120.823 E2.9476
G1 X121.231 Y121.363 E2.96673
G1 X121.323 Y121.708 E2.9786
G1 X121.397 Y122.276 E2.99766
G1 X121.4 Y127.6 E3.17473
G0 F6000 X121 Y128
G1 F900 X128 Y128 E3.40755
G1 X128 Y107 E4.10602
G1 X107 Y107 E4.80448
G1 X107 Y128 E5.50294
G1 X114 Y128 E5.73576
G1 X114.003 Y122.377 E5.92278
G1 X114.036 Y122.002 E5.93531
G1 X114.104 Y121.65 E5.94723
G1 X114.253 Y121.194 E5.96318
G1 X114.399 Y120.877 E5.97479
G1 X114.592 Y120.55 E5.98742
G1 X114.754 Y120.33 E5.99651
G1 X115.064 Y119.987 E6.01189
G1 X115.331 Y119.754 E6.02367
G1 X115.639 Y119.535 E6.03624
G1 X116.019 Y119.323 E6.05072
G1 X116.366 Y119.188 E6.0631
G1 X116.813 Y119.067 E6.0785
G1 X117.297 Y119.002 E6.09474
G1 X117.74 Y119.008 E6.10948
G1 X118.092 Y119.05 E6.12127
G1 X118.457 Y119.133 E6.13372
G1 X118.808 Y119.254 E6.14607
G1 X119.127 Y119.402 E6.15776
G1 X119.457 Y119.597 E6.17051
G1 X119.744 Y119.815 E6.1825
G1 X120.013 Y120.064 E6.19469
G1 X120.245 Y120.33 E6.20643
G1 X120.468 Y120.643 E6.21921
G1 X120.669 Y120.994 E6.23267
G1 X120.844 Y121.465 E6.24938
G1 X120.939 Y121.855 E6.26273
G1 X120.997 Y122.297 E6.27756
G1 X121 Y128 E6.46724
G0 F6000 X120.836 Y122.315
G0 X120.678 Y121.467
G0 X120.301 Y120.68
G0 X119.602 Y119.904
G0 X118.697 Y119.381
G0 X117.676 Y119.164
G0 X116.822 Y119.228
G0 X116.057 Y119.48
G0 X115.398 Y119.904
G0 X114.696 Y120.683
G0 X114.273 Y121.636
G0 X114.185 Y122.198
G0 X114.13 Y128.13
G0 X114.4 Y128.4
G1 F900 X114.406 Y122.316 E6.66959
G1 X114.443 Y121.98 E6.68084
G1 X114.495 Y121.733 E6.68923
G1 X114.619 Y121.356 E6.70243
G1 X114.747 Y121.074 E6.71273
G1 X114.914 Y120.788 E6.72375
G1 X115.113 Y120.523 E6.73477
G1 X115.331 Y120.285 E6.74551
G1 X115.568 Y120.076 E6.75602
G1 X115.783 Y119.918 E6.76489
G1 X116.18 Y119.689 E6.78013
G1 X116.572 Y119.542 E6.79406
G1 X116.882 Y119.461 E6.80471
G1 X117.363 Y119.403 E6.82083
G1 X117.698 Y119.406 E6.83197
G1 X118.011 Y119.442 E6.84245
G1 X118.266 Y119.495 E6.85111
G1 X118.589 Y119.598 E6.86239
G1 X118.93 Y119.75 E6.87481
G1 X119.219 Y119.919 E6.88594
G1 X119.477 Y120.113 E6.89668
G1 X119.715 Y120.331 E6.90741
G1 X119.923 Y120.567 E6.91787
G1 X120.121 Y120.842 E6.92915
G1 X120.32 Y121.203 E6.94286
G1 X120.437 Y121.505 E6.95363
G1 X120.528 Y121.832 E6.96492
G1 X120.592 Y122.288 E6.98023
G1 X120.6 Y128.4 E7.18352
G1 X128.4 Y128.4 E7.44295
G1 X128.4 Y106.6 E8.16802
G1 X106.6 Y106.6 E8.89309
G1 X106.6 Y128.4 E9.61816
G1 X114.4 Y128.4 E9.87759
G1 F2700 E4.87759
G0 F6000 X114.13 Y128.13
G0 X114.596 Y122.04
G0 X114.88 Y121.166
G0 X115.421 Y120.421
G0 X116.23 Y119.842
G0 X116.9 Y119.621
G0 X117.654 Y119.564
G0 X118.553 Y119.755
G0 X119.35 Y120.215
G0 X119.966 Y120.898
G0 X120.297 Y121.591
G0 X120.776 Y122.152
G0 X120.47 Y128.53
G0 X120.2 Y128.8
;TYPE:WALL-OUTER
G1 F2700 E9.87759
G1 F900 X128.8 Y128.8 E10.16363
G1 X128.8 Y106.2 E10.91531
G1 X106.2 Y106.2 E11.66698
G1 X106.2 Y128.8 E12.41866
G1 X114.8 Y128.8 E12.7047
G1 X114.804 Y122.357 E12.919
G1 X114.835 Y122.062 E12.92886
G1 X114.887 Y121.815 E12.93726
G1 X114.985 Y121.518 E12.94766
G1 X115.095 Y121.271 E12.95665
G1 X115.236 Y121.025 E12.96608
G1 X115.398 Y120.805 E12.97517
G1 X115.598 Y120.583 E12.98511
G1 X115.805 Y120.398 E12.99434
G1 X116.02 Y120.24 E13.00322
G1 X116.341 Y120.055 E13.01554
G1 X116.674 Y119.928 E13.02739
G1 X116.951 Y119.855 E13.03692
G1 X117.336 Y119.804 E13.04984
G1 X117.656 Y119.804 E13.06048
G1 X117.929 Y119.834 E13.06962
G1 X118.206 Y119.893 E13.07904
G1 X118.482 Y119.985 E13.08871
G1 X118.715 Y120.089 E13.0972
G1 X118.981 Y120.241 E13.10739
G1 X119.21 Y120.411 E13.11687
G1 X119.417 Y120.598 E13.12615
G1 X119.589 Y120.79 E13.13473
G1 X119.774 Y121.041 E13.1451
G1 X119.947 Y121.347 E13.15679
G1 X120.071 Y121.67 E13.1683
G1 X120.146 Y121.959 E13.17823
G1 X120.196 Y122.34 E13.19101
G1 X120.2 Y128.8 E13.40587
G0 F6000 X120.47 Y128.53
G0 X121.76 Y127.5
G0 X121.76 Y127.24
;TYPE:SKIN
G1 F900 X121.756 Y122.233 E13.5724
G1 X121.68 Y121.655 E13.59179
G1 X121.58 Y121.272 E13.60496
G1 X121.353 Y120.659 E13.6267
G1 X121.08 Y120.181 E13.64501
G1 X120.846 Y119.864 E13.65811
G1 X120.584 Y119.562 E13.67141
G1 X120.239 Y119.239 E13.68713
G1 X119.841 Y118.931 E13.70387
G1 X119.369 Y118.673 E13.72176
G1 X119.124 Y118.561 E13.73072
G1 X118.614 Y118.381 E13.74871
G1 X118.097 Y118.281 E13.76622
G1 X117.818 Y118.252 E13.77555
G1 X117.236 Y118.242 E13.79491
G1 X116.686 Y118.317 E13.81337
G1 X116.198 Y118.438 E13.83009
G1 X115.72 Y118.622 E13.84713
G1 X115.194 Y118.912 E13.86711
G1 X114.884 Y119.138 E13.87987
G1 X114.562 Y119.416 E13.89402
G1 X114.251 Y119.747 E13.90912
G1 X113.922 Y120.174 E13.92705
G1 X113.668 Y120.639 E13.94467
G1 X113.499 Y121.038 E13.95909
G1 X113.372 Y121.423 E13.97257
G1 X113.279 Y121.922 E13.98945
G1 X113.243 Y122.366 E14.00427
G1 X113.24 Y127.239 E14.16635
G1 X107.761 Y127.239 E14.34858
G1 X107.76 Y107.76 E14.99645
G1 X127.24 Y107.76 E15.64436
G1 X127.24 Y127.24 E16.29227
G1 X121.76 Y127.24 E16.47453
G0 F6000 X121.76 Y127.5
G0 X120.84 Y126.981
G0 X120.836 Y122.315
G0 X120.678 Y121.467
G0 X120.301 Y120.68
G0 X119.602 Y119.904
G0 X118.697 Y119.381
G0 X117.676 Y119.164
G0 X116.822 Y119.228
G0 X116.057 Y119.48
G0 X115.398 Y119.904
G0 X114.696 Y120.683
G0 X114.273 Y121.636
G0 X114.164 Y122.329
G0 X114.161 Y127.5
G0 X108.37 Y127.5
G0 X108.37 Y127.038
G1 F900 X107.96 Y126.627 E16.49384
G0 F6000 X107.96 Y126.062
G1 F900 X108.936 Y127.038 E16.53975
G0 F6000 X109.501 Y127.038
G1 F900 X107.96 Y125.496 E16.61226
G0 F6000 X107.96 Y124.93
G1 F900 X110.067 Y127.038 E16.71139
G0 F6000 X110.633 Y127.038
G1 F900 X107.96 Y124.365 E16.83712
G0 F6000 X107.96 Y123.799
G1 F900 X111.198 Y127.038 E16.98945
G0 F6000 X111.764 Y127.038
G1 F900 X107.96 Y123.233 E17.1684
G0 F6000 X107.96 Y122.668
G1 F900 X112.33 Y127.038 E17.37395
G0 F6000 X112.895 Y127.038
G1 F900 X107.96 Y122.102 E17.6061
G0 F6000 X107.96 Y121.536
G1 F900 X113.04 Y126.617 E17.84507
G0 F6000 X113.041 Y126.052
G1 F900 X107.96 Y120.971 E18.08407
G0 F6000 X107.96 Y120.405
G1 F900 X113.041 Y125.486 E18.32306
G0 F6000 X113.042 Y124.921
G1 F900 X107.96 Y119.839 E18.5621
G0 F6000 X107.96 Y119.274
G1 F900 X113.042 Y124.356 E18.80114
G0 F6000 X113.043 Y123.791
G1 F900 X107.96 Y118.708 E19.04023
G0 F6000 X107.96 Y118.142
G1 F900 X113.043 Y123.226 E19.27934
G0 F6000 X113.043 Y122.66
G1 F900 X107.96 Y117.577 E19.51843
G0 F6000 X107.959 Y117.01
G1 F900 X113.064 Y122.115 E19.75856
G0 F6000 X113.131 Y121.616
G1 F900 X107.959 Y116.444 E20.00183
G0 F6000 X107.959 Y115.879
G1 F900 X113.247 Y121.166 E20.25054
G0 F6000 X113.402 Y120.756
G1 F900 X107.959 Y115.313 E20.50656
G0 F6000 X107.959 Y114.747
G1 F900 X113.586 Y120.374 E20.77124
G0 F6000 X113.792 Y120.015
G1 F900 X107.959 Y114.182 E21.0456
G0 F6000 X107.959 Y113.616
G1 F900 X114.038 Y119.695 E21.33154
G0 F6000 X114.305 Y119.397
G1 F900 X107.959 Y113.05 E21.63006
G0 F6000 X107.959 Y112.485
G1 F900 X114.595 Y119.121 E21.9422
G0 F6000 X114.91 Y118.87
G1 F900 X107.959 Y111.919 E22.26915
G0 F6000 X107.959 Y111.353
G1 F900 X115.254 Y118.648 E22.61229
G0 F6000 X115.619 Y118.448
G1 F900 X107.959 Y110.788 E22.97259
G0 F6000 X107.959 Y110.222
G1 F900 X116.026 Y118.289 E23.35204
G0 F6000 X116.466 Y118.163
G1 F900 X107.959 Y109.656 E23.75218
G0 F6000 X107.959 Y109.091
G1 F900 X116.946 Y118.078 E24.1749
G0 F6000 X117.48 Y118.046
G1 F900 X107.959 Y108.525 E24.62274
G0 F6000 X107.959 Y107.959
G1 F900 X118.077 Y118.077 E25.09866
G0 F6000 X118.804 Y118.238
G1 F900 X108.526 Y107.96 E25.58211
G0 F6000 X109.091 Y107.96
G1 F900 X119.832 Y118.701 E26.08733
G0 F6000 X119.613 Y119.101
G0 X120.906 Y120.401
G0 X121.305 Y120.174
G1 F900 X127.039 Y125.908 E26.35704
G0 F6000 X127.039 Y126.473
G1 F900 X121.763 Y121.198 E26.60518
G0 F6000 X121.915 Y121.915
G1 F900 X127.039 Y127.039 E26.8462
G0 F6000 X126.473 Y127.039
G1 F900 X121.953 Y122.519 E27.05881
G0 F6000 X121.954 Y123.086
G1 F900 X125.908 Y127.039 E27.24477
G0 F6000 X125.342 Y127.039
G1 F900 X121.955 Y123.652 E27.40408
G0 F6000 X121.956 Y124.218
G1 F900 X124.776 Y127.039 E27.53675
G0 F6000 X124.211 Y127.039
G1 F900 X121.956 Y124.785 E27.64279
G0 F6000 X121.957 Y125.351
G1 F900 X123.645 Y127.039 E27.72219
G0 F6000 X123.079 Y127.039
G1 F900 X121.958 Y125.918 E27.77492
G0 F6000 X121.958 Y126.484
G1 F900 X122.514 Y127.039 E27.80105
G0 F6000 X122.514 Y127.5
G0 X127.428 Y127.428
G0 X127.5 Y125.342
G0 X127.039 Y125.342
G1 F900 X109.657 Y107.96 E28.61865
G0 F6000 X110.223 Y107.96
G1 F900 X127.039 Y124.776 E29.40962
G0 F6000 X127.039 Y124.211
G1 F900 X110.788 Y107.96 E30.17402
G0 F6000 X111.354 Y107.96
G1 F900 X127.039 Y123.645 E30.91179
G0 F6000 X127.039 Y123.079
G1 F900 X111.92 Y107.96 E31.62294
G0 F6000 X112.485 Y107.96
G1 F900 X127.039 Y122.514 E32.30752
G0 F6000 X127.039 Y121.948
G1 F900 X113.051 Y107.96 E32.96547
G0 F6000 X113.617 Y107.96
G1 F900 X127.039 Y121.382 E33.5968
G0 F6000 X127.039 Y120.816
G1 F900 X114.182 Y107.96 E34.20153
G0 F6000 X114.748 Y107.96
G1 F900 X127.039 Y120.251 E34.77966
G0 F6000 X127.039 Y119.685
G1 F900 X115.314 Y107.96 E35.33117
G0 F6000 X115.879 Y107.96
G1 F900 X127.039 Y119.119 E35.85608
G0 F6000 X127.039 Y118.554
G1 F900 X116.445 Y107.96 E36.35439
G0 F6000 X117.011 Y107.96
G1 F900 X127.039 Y117.988 E36.82607
G0 F6000 X127.039 Y117.422
G1 F900 X117.577 Y107.96 E37.27114
G0 F6000 X118.142 Y107.96
G1 F900 X127.039 Y116.857 E37.68962
G0 F6000 X127.039 Y116.291
G1 F900 X118.708 Y107.96 E38.08149
G0 F6000 X119.274 Y107.96
G1 F900 X127.039 Y115.725 E38.44673
G0 F6000 X127.039 Y115.16
G1 F900 X119.839 Y107.96 E38.7854
G0 F6000 X120.405 Y107.96
G1 F900 X127.039 Y114.594 E39.09744
G0 F6000 X127.039 Y114.028
G1 F900 X120.971 Y107.96 E39.38286
G0 F6000 X121.536 Y107.96
G1 F900 X127.039 Y113.463 E39.6417
G0 F6000 X127.039 Y112.897
G1 F900 X122.102 Y107.96 E39.87393
G0 F6000 X122.668 Y107.96
G1 F900 X127.039 Y112.331 E40.07952
G0 F6000 X127.039 Y111.766
G1 F900 X123.233 Y107.96 E40.25855
G0 F6000 X123.799 Y107.96
G1 F900 X127.039 Y111.2 E40.41095
G0 F6000 X127.039 Y110.634
G1 F900 X124.365 Y107.96 E40.53672
G0 F6000 X124.93 Y107.96
G1 F900 X127.039 Y110.068 E40.6359
G0 F6000 X127.039 Y109.503
G1 F900 X125.496 Y107.96 E40.70848
G0 F6000 X126.062 Y107.96
G1 F900 X127.039 Y108.937 E40.75443
G0 F6000 X127.039 Y108.371
G1 F900 X126.627 Y107.96 E40.77379
G0 F6000 X126.627 Y107.2
;MESH:NONMESH
G0 F300 X126.627 Y107.2 Z0.4
G0 F6000 X127.428 Y107.572
G0 X127.428 Y127.428
G0 X121.4 Y127.6
;TIME_ELAPSED:95.126912
;LAYER:1
M106 S42.5
;TYPE:WALL-INNER
;MESH:sensor_holder_closer.stl
G1 F1200 X127.6 Y127.6 E40.98
G1 X127.6 Y107.4 E41.65186
G1 X107.4 Y107.4 E42.32371
G1 X107.4 Y127.6 E42.99557
G1 X113.6 Y127.6 E43.20178
G1 X113.603 Y122.271 E43.37902
G1 X113.658 Y121.829 E43.39384
G1 X113.753 Y121.417 E43.4079
G1 X113.887 Y121.034 E43.42139
G1 X114.041 Y120.685 E43.43408
G1 X114.189 Y120.427 E43.44398
G1 X114.517 Y119.989 E43.46218
G1 X114.797 Y119.689 E43.47582
G1 X115.092 Y119.433 E43.48881
G1 X115.382 Y119.219 E43.5008
G1 X115.796 Y118.993 E43.51649
G1 X116.16 Y118.838 E43.52965
G1 X116.57 Y118.712 E43.54391
G1 X117.088 Y118.611 E43.56147
G1 X117.634 Y118.603 E43.57963
G1 X118.203 Y118.655 E43.59863
G1 X118.727 Y118.793 E43.61666
G1 X119.187 Y118.986 E43.63325
G1 X119.625 Y119.222 E43.6498
G1 X120.011 Y119.517 E43.66595
G1 X120.311 Y119.797 E43.6796
G1 X120.571 Y120.098 E43.69283
G1 X120.801 Y120.413 E43.70581
G1 X120.948 Y120.665 E43.71551
G1 X121.11 Y121.026 E43.72867
G1 X121.247 Y121.417 E43.74245
G1 X121.342 Y121.829 E43.75651
G1 X121.397 Y122.271 E43.77133
G1 X121.4 Y127.6 E43.94857
G0 F7500 X121 Y128
G1 F1200 X128 Y128 E44.18139
G1 X128 Y107 E44.87985
G1 X107 Y107 E45.57832
G1 X107 Y128 E46.27678
G1 X114 Y128 E46.5096
G1 X114.008 Y122.258 E46.70058
G1 X114.05 Y121.91 E46.71224
G1 X114.133 Y121.542 E46.72479
G1 X114.253 Y121.196 E46.73697
G1 X114.451 Y120.747 E46.75329
G1 X114.751 Y120.335 E46.77024
G1 X115.064 Y119.987 E46.78581
G1 X115.33 Y119.755 E46.79754
G1 X115.644 Y119.532 E46.81035
G1 X115.959 Y119.358 E46.82232
G1 X116.285 Y119.218 E46.83412
G1 X116.652 Y119.104 E46.84691
G1 X117.132 Y119.003 E46.86322
G1 X117.744 Y119.008 E46.88358
G1 X118.129 Y119.05 E46.89646
G1 X118.597 Y119.172 E46.91254
G1 X119.029 Y119.353 E46.92812
G1 X119.408 Y119.56 E46.94248
G1 X119.744 Y119.815 E46.95651
G1 X120.013 Y120.064 E46.96871
G1 X120.248 Y120.334 E46.98061
G1 X120.541 Y120.735 E46.99713
G1 X120.745 Y121.19 E47.01371
G1 X120.886 Y121.597 E47.02804
G1 X120.965 Y122.006 E47.0419
G1 X120.997 Y122.364 E47.05385
G1 X121 Y128 E47.2413
G0 F7500 X120.6 Y128.4
G1 F1200 X128.4 Y128.4 E47.50073
G1 X128.4 Y106.6 E48.2258
G1 X106.6 Y106.6 E48.95088
G1 X106.6 Y128.4 E49.67595
G1 X114.4 Y128.4 E49.93538
G1 X114.406 Y122.301 E50.13823
G1 X114.442 Y121.991 E50.14861
G1 X114.513 Y121.668 E50.15961
G1 X114.619 Y121.357 E50.17054
G1 X114.8 Y120.946 E50.18547
G1 X115.074 Y120.57 E50.20095
G1 X115.285 Y120.331 E50.21155
G1 X115.567 Y120.077 E50.22417
G1 X115.841 Y119.88 E50.2354
G1 X116.122 Y119.724 E50.24609
G1 X116.411 Y119.598 E50.25657
G1 X116.734 Y119.495 E50.26785
G1 X117.171 Y119.404 E50.2827
G1 X117.7 Y119.406 E50.30029
G1 X118.019 Y119.441 E50.31096
G1 X118.424 Y119.54 E50.32483
G1 X118.872 Y119.721 E50.3409
G1 X119.219 Y119.919 E50.35419
G1 X119.477 Y120.113 E50.36493
G1 X119.715 Y120.331 E50.37566
G1 X119.925 Y120.57 E50.38624
G1 X120.194 Y120.938 E50.4014
G1 X120.402 Y121.411 E50.41859
G1 X120.505 Y121.735 E50.4299
G1 X120.567 Y122.049 E50.44054
G1 X120.597 Y122.364 E50.45107
G1 X120.6 Y128.4 E50.65183
G0 F7500 X120.2 Y128.8
;TYPE:WALL-OUTER
G1 F1200 X128.8 Y128.8 E50.93786
G1 X128.8 Y106.2 E51.68954
G1 X106.2 Y106.2 E52.44122
G1 X106.2 Y128.8 E53.1929
G1 X114.8 Y128.8 E53.47894
G1 X114.804 Y122.343 E53.6937
G1 X114.834 Y122.072 E53.70277
G1 X114.893 Y121.794 E53.71222
G1 X114.985 Y121.519 E53.72186
G1 X115.16 Y121.133 E53.73596
G1 X115.398 Y120.806 E53.74941
G1 X115.598 Y120.583 E53.75938
G1 X115.79 Y120.411 E53.76795
G1 X116.039 Y120.228 E53.77823
G1 X116.285 Y120.089 E53.78762
G1 X116.518 Y119.985 E53.79611
G1 X116.816 Y119.887 E53.80654
G1 X117.2 Y119.806 E53.8196
G1 X117.656 Y119.804 E53.83476
G1 X118.004 Y119.844 E53.84642
G1 X118.35 Y119.936 E53.85832
G1 X118.734 Y120.099 E53.8722
G1 X118.981 Y120.241 E53.88167
G1 X119.21 Y120.411 E53.89116
G1 X119.417 Y120.598 E53.90044
G1 X119.602 Y120.806 E53.9097
G1 X119.853 Y121.157 E53.92405
