;FLAVOR:Marlin
;TIME:2298
;Filament used: 1.33344m
;Layer height: 0.2
;MINX:106.2
;MINY:106.2
;MINZ:0.2
;MAXX:128.8
;MAXY:128.8
;MAXZ:23
;TARGET_MACHINE.NAME:Creality Ender-3
;Generated with Cura_SteamEngine 5.5.0
M140 S70
M105
M190 S70
M104 S240
M105
M109 S240
M82 ;absolute extrusion mode
; Ender 3 Custom Start G-code
G92 E0 ; Reset Extruder
G28 ; Home all axes
G1 Z2.0 F3000 ; Move Z Axis up little to prevent scratching of Heat Bed
G1 X0.1 Y20 Z0.3 F5000.0 ; Move to start position
G1 X0.1 Y200.0 Z0.3 F1500.0 E15 ; Draw the first line
G1 X0.4 Y200.0 Z0.3 F5000.0 ; Move to side a little
G1 X0.4 Y20 Z0.3 F1500.0 E30 ; Draw the second line
G92 E0 ; Reset Extruder
G1 Z2.0 F3000 ; Move Z Axis up little to prevent scratching of Heat Bed
G1 X5 Y20 Z0.3 F5000.0 ; Move over to prevent blob squish
G92 E0
G92 E0
G1 F2700 E-5
;LAYER_COUNT:115
;LAYER:0
M107
;MESH:sensor_holder.stl
G0 F6000 X110.279 Y119.972 Z0.2
;TYPE:WALL-INNER
G1 F2700 E0
G1 F900 X109.705 Y119.999 E0.01911
G1 X109.203 Y119.913 E0.03605
G1 X108.721 Y119.723 E0.05328
G1 X108.427 Y119.543 E0.06475
G1 X108.039 Y119.202 E0.08193
G1 X107.74 Y118.805 E0.09846
G1 X107.521 Y118.351 E0.11523
G1 X107.391 Y117.803 E0.13396
G1 F895.5 X107.391 Y117.197 E0.15421
G1 F893.3 X107.521 Y116.649 E0.17309
G1 F897.8 X107.731 Y116.213 E0.18922
G1 F900 X107.901 Y115.964 E0.19925
G1 X108.222 Y115.62 E0.2149
G1 X108.625 Y115.331 E0.23139
G1 X109.055 Y115.136 E0.2471
G1 X109.346 Y115.054 E0.25715
G1 X109.791 Y114.999 E0.27207
G1 X110.082 Y115.006 E0.28175
G1 X110.561 Y115.087 E0.29791
G1 X111.207 Y115.343 E0.32102
G1 X111.722 Y115.803 E0.34399
G1 X112.029 Y116.21 E0.36094
G1 X112.251 Y116.687 E0.37844
G1 X112.375 Y117.278 E0.39853
G1 X112.359 Y117.863 E0.41799
G1 X112.231 Y118.356 E0.43493
G1 X112.012 Y118.809 E0.45167
G1 X111.707 Y119.209 E0.4684
G1 X111.338 Y119.54 E0.48488
G1 X110.714 Y119.865 E0.50828
G1 X110.279 Y119.972 E0.52318
G0 F6000 X110.251 Y119.568
G1 F900 X109.734 Y119.599 E0.54041
G1 X109.312 Y119.526 E0.55465
G1 X108.77 Y119.312 E0.57404
G1 X108.337 Y118.932 E0.5932
G1 X108.083 Y118.596 E0.60721
G1 X107.901 Y118.217 E0.62119
G1 X107.795 Y117.752 E0.63705
G1 X107.786 Y117.286 E0.65255
G1 X107.901 Y116.784 E0.66968
G1 X108.129 Y116.307 E0.68727
G1 X108.488 Y115.922 E0.70478
G1 X108.828 Y115.678 E0.7187
G1 X109.303 Y115.462 E0.73605
G1 X109.928 Y115.385 E0.757
G1 X110.451 Y115.474 E0.77464
G1 X110.99 Y115.687 E0.79392
G1 X111.402 Y116.053 E0.81225
G1 X111.667 Y116.394 E0.82661
G1 X111.856 Y116.785 E0.84105
G1 X111.97 Y117.285 E0.85811
G1 X111.961 Y117.804 E0.87538
G1 X111.859 Y118.221 E0.88965
G1 X111.672 Y118.598 E0.90365
G1 X111.423 Y118.932 E0.91751
G1 X111.105 Y119.207 E0.93149
G1 X110.574 Y119.487 E0.95146
G1 X110.251 Y119.568 E0.96253
G1 F2700 E-4.03747
G0 F6000 X110.323 Y119.859
G0 X112.557 Y119.077
G0 X114.875 Y119.116
G0 X117.29 Y120.399
G1 F2700 E0.96253
G1 F900 X116.855 Y120.324 E0.97721
G1 X116.58 Y120.247 E0.98671
G1 X116.195 Y120.095 E1.00048
G1 X115.883 Y119.934 E1.01216
G1 X115.345 Y119.45 E1.03623
G1 X115.028 Y119.02 E1.05399
G1 X114.762 Y118.491 E1.07369
G1 X114.61 Y117.818 E1.09664
G1 X114.606 Y117.236 E1.11599
G1 X114.755 Y116.523 E1.14022
G1 X115.099 Y115.831 E1.16592
G1 X115.58 Y115.318 E1.18931
G1 X116.049 Y114.981 E1.20852
G1 X116.509 Y114.772 E1.22533
G1 X116.847 Y114.668 E1.23709
G1 X117.362 Y114.602 E1.25436
G1 X117.636 Y114.589 E1.26348
G1 X118.14 Y114.674 E1.28048
G1 X118.421 Y114.752 E1.29018
G1 X118.808 Y114.905 E1.30402
G1 X119.119 Y115.067 E1.31568
G1 X119.639 Y115.532 E1.33889
G1 X120.001 Y116.016 E1.35899
G1 X120.255 Y116.57 E1.37926
G1 X120.396 Y117.247 E1.40226
G1 X120.378 Y117.913 E1.42442
G1 X120.246 Y118.453 E1.44291
G1 X120.002 Y118.979 E1.46219
G1 X119.655 Y119.45 E1.48165
G1 X119.194 Y119.866 E1.5023
G1 X118.619 Y120.168 E1.52391
G1 X118.324 Y120.279 E1.53439
G1 X117.947 Y120.371 E1.5473
G1 X117.29 Y120.399 E1.56917
G0 F6000 X117.316 Y119.998
G1 F900 X116.823 Y119.913 E1.58581
G1 X116.175 Y119.658 E1.60897
G1 X115.673 Y119.209 E1.63137
G1 X115.368 Y118.81 E1.64807
G1 X115.149 Y118.357 E1.66481
G1 X115.007 Y117.771 E1.68486
G1 X115.013 Y117.24 E1.70252
G1 X115.13 Y116.686 E1.72136
G1 X115.427 Y116.066 E1.74422
G1 X115.847 Y115.618 E1.76465
G1 X116.241 Y115.333 E1.78082
G1 X116.813 Y115.073 E1.80172
G1 X117.558 Y114.98 E1.82669
G1 X118.183 Y115.088 E1.84779
G1 X118.827 Y115.342 E1.87081
G1 X119.342 Y115.803 E1.8938
G1 X119.649 Y116.21 E1.91076
G1 X119.871 Y116.687 E1.92826
G1 X119.995 Y117.278 E1.94834
G1 X119.979 Y117.863 E1.9678
G1 X119.851 Y118.356 E1.98475
G1 X119.632 Y118.809 E2.00148
G1 X119.327 Y119.209 E2.01821
G1 X118.958 Y119.54 E2.0347
G1 X118.334 Y119.865 E2.0581
G1 X117.892 Y119.974 E2.07324
G1 X117.316 Y119.998 E2.09241
G0 F6000 X117.346 Y119.597
G1 F900 X116.932 Y119.526 E2.10639
G1 X116.408 Y119.32 E2.12511
G1 X115.964 Y118.934 E2.14468
G1 X115.708 Y118.599 E2.1587
G1 X115.525 Y118.221 E2.17267
G1 X115.41 Y117.711 E2.19006
G1 X115.41 Y117.284 E2.20426
G1 X115.518 Y116.788 E2.22115
G1 X115.753 Y116.301 E2.23913
G1 X116.135 Y115.903 E2.25748
G1 X116.419 Y115.699 E2.26911
G1 X116.898 Y115.473 E2.28672
G1 X117.52 Y115.388 E2.3076
G1 X118.067 Y115.472 E2.32601
G1 X118.61 Y115.687 E2.34544
G1 X119.022 Y116.053 E2.36376
G1 X119.287 Y116.394 E2.37813
G1 X119.476 Y116.785 E2.39257
G1 X119.59 Y117.285 E2.40963
G1 X119.581 Y117.804 E2.42689
G1 X119.48 Y118.217 E2.44104
G1 X119.298 Y118.596 E2.45502
G1 X119.041 Y118.934 E2.46914
G1 X118.725 Y119.207 E2.48303
G1 X118.193 Y119.487 E2.50303
G1 X117.866 Y119.569 E2.51424
G1 X117.346 Y119.597 E2.53156
G1 F2700 E-2.46844
G0 F6000 X117.293 Y119.893
G0 X118.09 Y119.747
G0 X120.16 Y119.067
G0 X122.478 Y119.126
G0 X124.945 Y119.999
G1 F2700 E2.53156
G1 F900 X124.443 Y119.913 E2.5485
G1 X123.795 Y119.658 E2.57166
G1 X123.293 Y119.209 E2.59406
G1 X122.988 Y118.81 E2.61077
G1 X122.769 Y118.357 E2.6275
G1 X122.627 Y117.771 E2.64756
G1 X122.633 Y117.24 E2.66522
G1 X122.75 Y116.686 E2.68405
G1 X123.047 Y116.066 E2.70692
G1 X123.467 Y115.618 E2.72734
G1 X123.861 Y115.333 E2.74351
G1 X124.431 Y115.074 E2.76434
G1 X125.031 Y114.999 E2.78445
G1 X125.321 Y115.006 E2.7941
G1 X125.797 Y115.087 E2.81016
G1 X126.281 Y115.278 E2.82746
G1 X126.577 Y115.459 E2.839
G1 X126.952 Y115.791 E2.85566
G1 X127.252 Y116.181 E2.87203
G1 F895.5 X127.479 Y116.652 E2.8895
G1 F888.9 X127.614 Y117.221 E2.9092
G1 F884.5 X127.592 Y117.898 E2.93212
G1 F888.9 X127.477 Y118.357 E2.94805
G1 F897.8 X127.26 Y118.805 E2.96465
G1 F900 X126.961 Y119.201 E2.98116
G1 X126.567 Y119.55 E2.99866
G1 X125.938 Y119.872 E3.02216
G1 X125.431 Y119.976 E3.03938
G1 X124.945 Y119.999 E3.05556
G0 F6000 X124.971 Y119.598
G1 F900 X124.552 Y119.526 E3.0697
G1 X124.028 Y119.32 E3.08843
G1 X123.584 Y118.934 E3.108
G1 X123.328 Y118.599 E3.12202
G1 X123.145 Y118.221 E3.13599
G1 X123.03 Y117.711 E3.15338
G1 X123.03 Y117.284 E3.16758
G1 X123.138 Y116.788 E3.18446
G1 X123.373 Y116.301 E3.20245
G1 X123.755 Y115.903 E3.22079
G1 X124.039 Y115.699 E3.23242
G1 X124.539 Y115.463 E3.25081
G1 X125.167 Y115.385 E3.27186
G1 X125.686 Y115.473 E3.28937
G1 X126.233 Y115.689 E3.30893
G1 X126.662 Y116.069 E3.32799
G1 X126.912 Y116.398 E3.34174
G1 X127.102 Y116.789 E3.35619
G1 X127.216 Y117.297 E3.37351
G1 X127.195 Y117.829 E3.39122
G1 X127.097 Y118.222 E3.40469
G1 X126.918 Y118.595 E3.41845
G1 X126.665 Y118.929 E3.43239
G1 X126.339 Y119.217 E3.44686
G1 X125.804 Y119.491 E3.46685
G1 X125.411 Y119.577 E3.48023
G1 X124.971 Y119.598 E3.49488
G0 F6000 X124.918 Y119.894
G0 X127.416 Y119.578
G0 X127.6 Y127.6
G1 F900 X127.6 Y119.02 E3.78025
G1 X127.336 Y119.368 E3.79478
G1 X127.144 Y119.573 E3.80412
G1 X126.922 Y119.769 E3.81397
G1 X126.637 Y119.963 E3.82544
G1 X126.238 Y120.168 E3.84036
G1 X125.845 Y120.316 E3.85432
G1 X125.45 Y120.376 E3.86761
G1 X125.077 Y120.394 E3.88003
G1 X124.77 Y120.375 E3.89026
G1 X124.475 Y120.324 E3.90022
G1 X124.2 Y120.247 E3.90972
G1 X123.815 Y120.095 E3.92349
G1 X123.503 Y119.934 E3.93516
G1 X122.965 Y119.45 E3.95923
G1 X122.648 Y119.02 E3.977
G1 X122.382 Y118.491 E3.9967
G1 X122.23 Y117.818 E4.01964
G1 X122.226 Y117.236 E4.039
G1 X122.375 Y116.523 E4.06323
G1 X122.719 Y115.831 E4.08893
G1 X123.2 Y115.318 E4.11232
G1 X123.669 Y114.981 E4.13153
G1 X124.245 Y114.719 E4.15258
G1 X124.498 Y114.662 E4.1612
G1 X124.982 Y114.602 E4.17742
G1 X125.388 Y114.611 E4.19093
G1 X125.76 Y114.674 E4.20348
G1 X126.041 Y114.753 E4.21319
G1 X126.428 Y114.906 E4.22703
G1 X126.842 Y115.159 E4.24317
G1 X127.148 Y115.43 E4.25676
G1 X127.333 Y115.631 E4.26585
G1 X127.6 Y115.978 E4.28041
G1 X127.6 Y107.4 E4.56571
G1 X107.401 Y107.401 E5.23754
G1 X107.401 Y115.995 E5.52337
G1 X107.609 Y115.691 E5.53562
G1 X107.863 Y115.419 E5.548
G1 X108.07 Y115.237 E5.55717
G1 X108.311 Y115.064 E5.56704
G1 X108.548 Y114.927 E5.57614
G1 X108.889 Y114.771 E5.58861
G1 X109.297 Y114.657 E5.6027
G1 X109.742 Y114.602 E5.61762
G1 X110.148 Y114.611 E5.63112
G1 X110.52 Y114.674 E5.64367
G1 X110.801 Y114.752 E5.65337
G1 X111.188 Y114.905 E5.66721
G1 X111.499 Y115.067 E5.67888
G1 X112.019 Y115.532 E5.70208
G1 X112.381 Y116.016 E5.72218
G1 X112.635 Y116.57 E5.74245
G1 X112.777 Y117.253 E5.76565
G1 X112.757 Y117.914 E5.78765
G1 X112.626 Y118.453 E5.8061
G1 X112.382 Y118.979 E5.82538
G1 X112.035 Y119.45 E5.84484
G1 X111.574 Y119.866 E5.86549
G1 X110.999 Y120.168 E5.8871
G1 X110.704 Y120.279 E5.89758
G1 X110.334 Y120.37 E5.91025
G1 X109.837 Y120.394 E5.9268
G1 X109.53 Y120.375 E5.93703
G1 X109.235 Y120.324 E5.94699
G1 X108.96 Y120.248 E5.95648
G1 X108.575 Y120.095 E5.97026
G1 X108.163 Y119.844 E5.9863
G1 X107.855 Y119.573 E5.99995
G1 X107.663 Y119.367 E6.00932
G1 X107.401 Y119.021 E6.02375
G1 X107.401 Y127.599 E6.30906
G1 X127.6 Y127.6 E6.98088
G0 F6000 X128 Y128
G1 F893.3 X127.997 Y117.933 E7.31822
G1 F900 X128.004 Y117.353 E7.33751
G1 X127.996 Y117.087 E7.34636
G1 F891.1 X128 Y107 E7.68521
G1 F900 X107.001 Y107.001 E8.38364
G1 F891.1 X107.004 Y117.085 E8.72239
G1 F900 X106.997 Y117.352 E8.73127
G1 X107.004 Y117.915 E8.75
G1 F891.1 X107.001 Y127.999 E9.08875
G1 F900 X128 Y128 E9.78718
G0 F6000 X128.4 Y128.4
G1 F900 X128.4 Y106.6 E10.51225
G1 X106.601 Y106.601 E11.23729
G1 X106.601 Y128.399 E11.96229
G1 X128.4 Y128.4 E12.68733
G0 F6000 X128.8 Y128.8
;TYPE:WALL-OUTER
G1 F900 X128.8 Y106.2 E13.43901
G1 X106.201 Y106.201 E14.19066
G1 X106.201 Y128.799 E14.94227
G1 X128.8 Y128.8 E15.69391
G1 F2700 E10.69391
G0 F6000 X128.53 Y128.53
G0 X127.564 Y119.25
G0 X124.852 Y119.882
G0 X124.974 Y119.193
G1 F2700 E15.69391
G1 F900 X124.64 Y119.131 E15.70521
G1 X124.221 Y118.966 E15.72019
G1 X123.887 Y118.672 E15.73499
G1 X123.668 Y118.388 E15.74692
G1 X123.521 Y118.084 E15.75815
G1 X123.427 Y117.66 E15.77259
G1 X123.428 Y117.329 E15.7836
G1 X123.514 Y116.941 E15.79682
G1 X123.71 Y116.53 E15.81197
G1 X123.988 Y116.23 E15.82557
G1 X124.258 Y116.034 E15.83667
G1 X124.651 Y115.855 E15.85103
G1 X125.159 Y115.789 E15.86807
G1 X125.56 Y115.857 E15.8816
G1 X126.02 Y116.035 E15.898
G1 X126.379 Y116.357 E15.91404
G1 X126.561 Y116.596 E15.92403
G1 X126.726 Y116.941 E15.93675
G1 X126.814 Y117.353 E15.95076
G1 X126.801 Y117.76 E15.96431
G1 X126.726 Y118.061 E15.97462
G1 X126.583 Y118.368 E15.98589
G1 X126.38 Y118.642 E15.99723
G1 X126.13 Y118.868 E16.00844
G1 X125.648 Y119.116 E16.02647
G1 X125.392 Y119.177 E16.03522
G1 X124.974 Y119.193 E16.04913
G1 F2700 E11.04913
G0 F6000 X124.852 Y119.882
G0 X122.478 Y119.126
G0 X120.16 Y119.067
G0 X118.112 Y119.737
G0 X117.232 Y119.882
G0 X117.354 Y119.193
G1 F2700 E16.04913
G1 F900 X117.02 Y119.131 E16.06043
G1 X116.601 Y118.966 E16.07541
G1 X116.267 Y118.672 E16.09021
G1 X116.048 Y118.388 E16.10214
G1 X115.901 Y118.084 E16.11337
G1 X115.807 Y117.66 E16.12781
G1 X115.808 Y117.329 E16.13882
G1 X115.894 Y116.941 E16.15204
G1 X116.09 Y116.53 E16.16719
G1 X116.368 Y116.23 E16.18079
G1 X116.638 Y116.034 E16.19189
G1 X117.034 Y115.854 E16.20635
G1 X117.54 Y115.789 E16.22332
G1 X117.98 Y115.868 E16.23819
G1 X118.41 Y116.045 E16.25366
G1 X118.759 Y116.357 E16.26923
G1 X118.962 Y116.63 E16.28054
G1 X119.106 Y116.94 E16.29191
G1 X119.192 Y117.33 E16.30519
G1 X119.18 Y117.763 E16.3196
G1 X119.106 Y118.061 E16.32981
G1 X118.963 Y118.369 E16.34111
G1 X118.746 Y118.659 E16.35316
G1 X118.493 Y118.881 E16.36435
G1 X118.028 Y119.116 E16.38168
G1 X117.797 Y119.175 E16.38961
G1 X117.354 Y119.193 E16.40436
G1 F2700 E11.40436
G0 F6000 X117.232 Y119.882
G0 X114.875 Y119.116
G0 X112.557 Y119.077
G0 X110.348 Y119.853
G0 X110.179 Y119.174
G1 F2700 E16.40436
G1 F900 X109.734 Y119.193 E16.41917
G1 X109.4 Y119.131 E16.43047
G1 X108.981 Y118.966 E16.44545
G1 X108.647 Y118.672 E16.46025
G1 X108.418 Y118.37 E16.47285
G1 X108.274 Y118.06 E16.48422
G1 X108.189 Y117.683 E16.49707
G1 X108.191 Y117.307 E16.50958
G1 X108.289 Y116.899 E16.52354
G1 X108.466 Y116.531 E16.53712
G1 X108.77 Y116.212 E16.55177
G1 X109.045 Y116.019 E16.56295
G1 X109.413 Y115.852 E16.57639
G1 X109.921 Y115.789 E16.59341
G1 X110.36 Y115.868 E16.60825
G1 X110.79 Y116.045 E16.62372
G1 X111.139 Y116.357 E16.63929
G1 X111.342 Y116.63 E16.6506
G1 X111.486 Y116.94 E16.66197
G1 X111.572 Y117.33 E16.67525
G1 X111.56 Y117.763 E16.68966
G1 X111.486 Y118.061 E16.69987
G1 X111.343 Y118.369 E16.71117
G1 X111.126 Y118.659 E16.72321
G1 X110.873 Y118.881 E16.73441
G1 X110.408 Y119.116 E16.75174
G1 X110.179 Y119.174 E16.7596
G1 F2700 E11.7596
G0 F6000 X110.348 Y119.853
G0 X108.054 Y119.962
G0 X107.585 Y119.581
G0 X107.573 Y127.427
G0 X127.239 Y127.499
G0 X127.24 Y127.24
;TYPE:SKIN
G1 F2700 E16.7596
G1 F900 X107.762 Y127.238 E17.40744
G1 X107.763 Y119.973 E17.64907
G1 X107.919 Y120.11 E17.65598
G1 X108.414 Y120.415 E17.67531
G1 X108.845 Y120.588 E17.69076
G1 X109.192 Y120.683 E17.70273
G1 X109.466 Y120.73 E17.71197
G1 X109.837 Y120.754 E17.72434
G1 X110.398 Y120.726 E17.74302
G1 X110.787 Y120.63 E17.75635
G1 X111.142 Y120.498 E17.76894
G1 X111.56 Y120.284 E17.78456
G1 X111.831 Y120.118 E17.79513
G1 X112.306 Y119.689 E17.81642
G1 X112.697 Y119.156 E17.83841
G1 X112.974 Y118.554 E17.86045
G1 X113.111 Y117.985 E17.87991
G1 X113.138 Y117.247 E17.90448
G1 X112.986 Y116.486 E17.93029
G1 X112.694 Y115.834 E17.95405
G1 X112.296 Y115.301 E17.97617
G1 X111.694 Y114.764 E18.003
G1 X111.323 Y114.57 E18.01693
G1 X110.937 Y114.418 E18.03073
G1 X110.564 Y114.315 E18.0436
G1 X110.213 Y114.256 E18.05544
G1 X109.694 Y114.244 E18.0727
G1 X109.259 Y114.298 E18.08728
G1 X108.759 Y114.436 E18.10453
G1 X108.385 Y114.606 E18.1182
G1 X108.089 Y114.777 E18.12957
G1 X107.762 Y115.016 E18.14304
G1 X107.762 Y107.762 E18.38431
G1 X127.24 Y107.76 E19.03215
G1 X127.24 Y115.03 E19.27395
G1 X127.055 Y114.87 E19.28209
G1 X126.588 Y114.586 E19.30026
G1 X126.158 Y114.413 E19.31568
G1 X125.833 Y114.321 E19.32691
G1 X125.451 Y114.256 E19.3398
G1 X124.933 Y114.245 E19.35704
G1 X124.406 Y114.313 E19.37471
G1 X124.144 Y114.372 E19.38364
G1 X123.473 Y114.678 E19.40817
G1 X122.979 Y115.032 E19.42838
G1 X122.53 Y115.508 E19.45015
G1 X122.366 Y115.734 E19.45943
G1 X122.033 Y116.401 E19.48423
G1 X121.869 Y117.181 E19.51074
G1 X121.869 Y117.74 E19.52933
G1 X121.908 Y118.021 E19.53877
G1 X122.045 Y118.623 E19.5593
G1 X122.348 Y119.221 E19.5816
G1 X122.694 Y119.69 E19.60098
G1 X123.298 Y120.232 E19.62798
G1 X123.68 Y120.43 E19.64229
G1 X124.065 Y120.581 E19.65604
G1 X124.424 Y120.682 E19.66845
G1 X124.706 Y120.73 E19.67796
G1 X125.077 Y120.754 E19.69033
G1 X125.485 Y120.734 E19.70391
G1 X125.958 Y120.658 E19.71985
G1 X126.382 Y120.498 E19.73492
G1 X126.803 Y120.282 E19.75066
G1 X127.24 Y119.988 E19.76817
G1 X127.24 Y127.24 E20.00938
G1 F2700 E15.00938
G0 F6000 X127.239 Y127.499
G0 X117.395 Y127.419
G0 X117.389 Y120.576
G0 X117.374 Y120.755
G1 F2700 E20.00938
G1 F900 X118.003 Y120.728 E20.03032
G1 X118.408 Y120.63 E20.04418
G1 X118.762 Y120.498 E20.05674
G1 X119.18 Y120.284 E20.07236
G1 X119.439 Y120.127 E20.08243
G1 X119.926 Y119.689 E20.10422
G1 X120.317 Y119.156 E20.12621
G1 X120.593 Y118.558 E20.14811
G1 X120.738 Y117.937 E20.16932
G1 X120.753 Y117.194 E20.19404
G1 X120.604 Y116.475 E20.21846
G1 X120.314 Y115.834 E20.24186
G1 X119.916 Y115.301 E20.26399
G1 X119.314 Y114.764 E20.29082
