;FLAVOR:Marlin
;TIME:2976
;Filament used: 1.65341m
;Layer height: 0.2
;MINX:95.864
;MINY:105.273
;MINZ:0.2
;MAXX:138.366
;MAXY:129.653
;MAXZ:23
;TARGET_MACHINE.NAME:Creality Ender-3
;Generated with Cura_SteamEngine 5.5.0
M140 S70
M105
M190 S70
M104 S240
M105
M109 S240
M82 ;absolute extrusion mode
; Ender 3 Custom Start G-code
G92 E0 ; Reset Extruder
G28 ; Home all axes
G1 Z2.0 F3000 ; Move Z Axis up little to prevent scratching of Heat Bed
G1 X0.1 Y20 Z0.3 F5000.0 ; Move to start position
G1 X0.1 Y200.0 Z0.3 F1500.0 E15 ; Draw the first line
G1 X0.4 Y200.0 Z0.3 F5000.0 ; Move to side a little
G1 X0.4 Y20 Z0.3 F1500.0 E30 ; Draw the second line
G92 E0 ; Reset Extruder
G1 Z2.0 F3000 ; Move Z Axis up little to prevent scratching of Heat Bed
G1 X5 Y20 Z0.3 F5000.0 ; Move over to prevent blob squish
G92 E0
G92 E0
G1 F2700 E-5
;LAYER_COUNT:115
;LAYER:0
M107
G0 F6000 X98.391 Y108.953 Z0.2
;TYPE:SKIRT
G1 F2700 E0
G1 F900 X100.138 Y108.463 E0.06035
G1 X101.885 Y108.953 E0.1207
G1 X103.151 Y110.29 E0.18194
G1 X103.641 Y111.968 E0.24008
G1 X103.152 Y113.716 E0.30045
G1 X101.887 Y114.981 E0.35995
G1 X100.139 Y115.47 E0.42032
G1 X98.461 Y114.979 E0.47847
G1 X97.126 Y113.644 E0.54127
G1 X96.635 Y111.967 E0.59939
G1 X97.125 Y110.29 E0.65749
G1 X98.391 Y108.953 E0.71874
G0 F6000 X98.606 Y109.308
G1 F900 X100.138 Y108.878 E0.77166
G1 X101.67 Y109.308 E0.82458
G1 X102.794 Y110.495 E0.87895
G1 X103.225 Y111.971 E0.9301
G1 X102.795 Y113.507 E0.98315
G1 X101.678 Y114.624 E1.03569
G1 X100.142 Y115.054 E1.08874
G1 X98.672 Y114.624 E1.13968
G1 X97.481 Y113.433 E1.1957
G1 X97.052 Y111.967 E1.24651
G1 X97.482 Y110.495 E1.29751
G1 X98.606 Y109.308 E1.35188
G0 F6000 X98.82 Y109.663
G1 F900 X100.138 Y109.294 E1.39741
G1 X101.456 Y109.663 E1.44293
G1 X102.437 Y110.7 E1.49041
G1 X102.809 Y111.974 E1.53455
G1 X102.439 Y113.297 E1.58024
G1 X101.468 Y114.268 E1.62591
G1 X100.146 Y114.638 E1.67157
G1 X98.882 Y114.268 E1.71538
G1 X97.836 Y113.222 E1.76458
G1 X97.469 Y111.966 E1.8081
G1 X97.839 Y110.7 E1.85197
G1 X98.82 Y109.663 E1.89945
G0 F6000 X99.036 Y110.018
G1 F900 X100.138 Y109.709 E1.93751
G1 X101.24 Y110.018 E1.97558
G1 X102.08 Y110.905 E2.01621
G1 X102.393 Y111.977 E2.05336
G1 X102.082 Y113.088 E2.09173
G1 X101.259 Y113.911 E2.13044
G1 X100.148 Y114.222 E2.16881
G1 X99.093 Y113.913 E2.20538
G1 X98.192 Y113.012 E2.24776
G1 X97.886 Y111.967 E2.28397
G1 X98.196 Y110.905 E2.32077
G1 X99.036 Y110.018 E2.3614
G0 F6000 X99.25 Y110.373
G1 F900 X100.138 Y110.124 E2.39207
G1 X101.026 Y110.373 E2.42275
G1 X101.723 Y111.109 E2.45646
G1 X101.977 Y111.979 E2.48661
G1 X101.725 Y112.879 E2.51769
G1 X101.05 Y113.554 E2.54944
G1 X100.151 Y113.806 E2.5805
G1 X99.304 Y113.558 E2.60985
G1 X98.547 Y112.801 E2.64546
G1 X98.303 Y111.967 E2.67436
G1 X98.553 Y111.109 E2.70408
G1 X99.25 Y110.373 E2.7378
G0 F6000 X99.464 Y110.729
G1 F900 X100.138 Y110.54 E2.76108
G1 X100.812 Y110.729 E2.78436
G1 X101.366 Y111.313 E2.81113
G1 X101.561 Y111.981 E2.83428
G1 X101.367 Y112.671 E2.85812
G1 X100.842 Y113.196 E2.88281
G1 X100.152 Y113.389 E2.90664
G1 X99.515 Y113.203 E2.92871
G1 X98.902 Y112.59 E2.95755
G1 X98.72 Y111.966 E2.97917
G1 X98.91 Y111.313 E3.00179
G1 X99.464 Y110.729 E3.02856
G0 F6000 X99.679 Y111.084
G1 F900 X100.138 Y110.955 E3.04442
G1 X100.597 Y111.084 E3.06028
G1 X101.009 Y111.519 E3.0802
G1 X101.145 Y111.983 E3.09629
G1 X101.01 Y112.464 E3.1129
G1 X100.635 Y112.839 E3.13054
G1 X100.155 Y112.973 E3.14712
G1 X99.723 Y112.847 E3.16208
G1 X99.257 Y112.381 E3.184
G1 X99.136 Y111.967 E3.19835
G1 X99.267 Y111.519 E3.21387
G1 X99.679 Y111.084 E3.2338
G0 F6000 X99.892 Y111.44
G1 F900 X100.138 Y111.371 E3.2423
G1 X100.384 Y111.44 E3.2508
G1 X100.652 Y111.723 E3.26376
G1 X100.729 Y111.986 E3.27287
G1 X100.654 Y112.254 E3.28213
G1 X100.425 Y112.483 E3.2929
G1 X100.157 Y112.558 E3.30216
G1 X99.935 Y112.493 E3.30985
G1 X99.612 Y112.17 E3.32504
G1 X99.552 Y111.968 E3.33205
G1 X99.624 Y111.723 E3.34055
G1 X99.892 Y111.44 E3.35351
G0 F6000 X100.107 Y111.795
G1 F900 X100.138 Y111.786 E3.35458
G1 X100.169 Y111.795 E3.35566
G1 X100.295 Y111.929 E3.36177
G1 X100.313 Y111.989 E3.36386
G1 X100.297 Y112.045 E3.3658
G1 X100.216 Y112.126 E3.36961
G1 X100.159 Y112.142 E3.37157
G1 X100.146 Y112.138 E3.37203
G1 X99.971 Y111.963 E3.38026
G1 X99.981 Y111.929 E3.38144
G1 X100.107 Y111.795 E3.38755
G1 F2700 E-1.61245
G0 F6000 X100.138 Y118.755
G1 F2700 E3.38755
G1 F900 X101.885 Y119.245 E3.4479
G1 X103.151 Y120.582 E3.50914
G1 X103.641 Y122.26 E3.56729
G1 X103.152 Y124.008 E3.62766
G1 X101.887 Y125.273 E3.68716
G1 X100.139 Y125.762 E3.74753
G1 X98.461 Y125.271 E3.80568
G1 X97.126 Y123.936 E3.86847
G1 X96.635 Y122.259 E3.92659
G1 X97.125 Y120.582 E3.9847
G1 X98.391 Y119.245 E4.04594
G1 X100.138 Y118.755 E4.10629
G0 F6000 X100.138 Y119.17
G1 F900 X101.67 Y119.6 E4.15921
G1 X102.794 Y120.787 E4.21359
G1 X103.225 Y122.263 E4.26473
G1 X102.795 Y123.799 E4.31778
G1 X101.678 Y124.916 E4.37032
G1 X100.142 Y125.346 E4.42337
G1 X98.672 Y124.916 E4.47431
G1 X97.481 Y123.725 E4.53033
G1 X97.052 Y122.259 E4.58114
G1 X97.482 Y120.787 E4.63214
G1 X98.606 Y119.6 E4.68651
G1 X100.138 Y119.17 E4.73944
G0 F6000 X100.138 Y119.586
G1 F900 X101.456 Y119.955 E4.78496
G1 X102.437 Y120.992 E4.83244
G1 X102.809 Y122.266 E4.87658
G1 X102.439 Y123.589 E4.92227
G1 X101.468 Y124.56 E4.96795
G1 X100.146 Y124.93 E5.01361
G1 X98.882 Y124.56 E5.05741
G1 X97.836 Y123.514 E5.10661
G1 X97.469 Y122.258 E5.15013
G1 X97.839 Y120.992 E5.194
G1 X98.82 Y119.955 E5.24148
G1 X100.138 Y119.586 E5.287
G0 F6000 X100.138 Y120.001
G1 F900 X101.24 Y120.31 E5.32507
G1 X102.08 Y121.197 E5.3657
G1 X102.393 Y122.269 E5.40284
G1 X102.082 Y123.38 E5.44122
G1 X101.259 Y124.203 E5.47993
G1 X100.148 Y124.514 E5.5183
G1 X99.093 Y124.205 E5.55486
G1 X98.192 Y123.304 E5.59724
G1 X97.886 Y122.259 E5.63346
G1 X98.196 Y121.197 E5.67026
G1 X99.036 Y120.31 E5.71089
G1 X100.138 Y120.001 E5.74895
G0 F6000 X100.138 Y120.416
G1 F900 X101.026 Y120.665 E5.77963
G1 X101.723 Y121.401 E5.81334
G1 X101.977 Y122.271 E5.84349
G1 X101.725 Y123.171 E5.87457
G1 X101.05 Y123.846 E5.90632
G1 X100.151 Y124.098 E5.93738
G1 X99.304 Y123.85 E5.96673
G1 X98.547 Y123.093 E6.00234
G1 X98.303 Y122.259 E6.03124
G1 X98.553 Y121.401 E6.06096
G1 X99.25 Y120.665 E6.09468
G1 X100.138 Y120.416 E6.12535
G0 F6000 X100.138 Y120.832
G1 F900 X100.812 Y121.021 E6.14863
G1 X101.366 Y121.605 E6.17541
G1 X101.561 Y122.273 E6.19855
G1 X101.367 Y122.963 E6.22239
G1 X100.842 Y123.488 E6.24709
G1 X100.152 Y123.681 E6.27092
G1 X99.515 Y123.495 E6.29299
G1 X98.902 Y122.882 E6.32182
G1 X98.72 Y122.258 E6.34344
G1 X98.91 Y121.605 E6.36606
G1 X99.464 Y121.021 E6.39283
G1 X100.138 Y120.832 E6.41612
G0 F6000 X100.138 Y121.247
G1 F900 X100.597 Y121.376 E6.43197
G1 X101.009 Y121.811 E6.4519
G1 X101.145 Y122.275 E6.46798
G1 X101.01 Y122.756 E6.4846
G1 X100.635 Y123.131 E6.50224
G1 X100.155 Y123.265 E6.51881
G1 X99.723 Y123.139 E6.53378
G1 X99.257 Y122.673 E6.5557
G1 X99.136 Y122.259 E6.57005
G1 X99.267 Y121.811 E6.58557
G1 X99.679 Y121.376 E6.6055
G1 X100.138 Y121.247 E6.62135
G0 F6000 X100.138 Y121.663
G1 F900 X100.384 Y121.732 E6.62985
G1 X100.652 Y122.015 E6.64282
G1 X100.729 Y122.278 E6.65193
G1 X100.654 Y122.546 E6.66119
G1 X100.425 Y122.775 E6.67196
G1 X100.157 Y122.85 E6.68121
G1 X99.935 Y122.785 E6.68891
G1 X99.612 Y122.462 E6.7041
G1 X99.552 Y122.26 E6.71111
G1 X99.624 Y122.015 E6.7196
G1 X99.892 Y121.732 E6.73257
G1 X100.138 Y121.663 E6.74106
G0 F6000 X100.138 Y122.078
G1 F900 X100.169 Y122.087 E6.74214
G1 X100.295 Y122.221 E6.74826
G1 X100.313 Y122.281 E6.75034
G1 X100.297 Y122.337 E6.75228
G1 X100.216 Y122.418 E6.75609
G1 X100.159 Y122.434 E6.75806
G1 X100.146 Y122.43 E6.75851
G1 X99.971 Y122.255 E6.76674
G1 X99.981 Y122.221 E6.76792
G1 X100.107 Y122.087 E6.77404
G1 X100.138 Y122.078 E6.77511
G1 F2700 E1.77511
G0 F6000 X105.347 Y129.653
G0 X129.653 Y129.653
G0 X131.358 Y118.992
G1 F2700 E6.77511
G1 F900 X131.849 Y117.313 E6.83329
G1 X133.113 Y115.977 E6.89446
G1 X134.862 Y115.487 E6.95488
G1 X136.611 Y115.977 E7.01529
G1 X137.875 Y117.313 E7.07646
G1 X138.366 Y118.993 E7.13467
G1 X137.877 Y120.742 E7.19508
G1 X136.612 Y122.007 E7.25458
G1 X134.863 Y122.496 E7.31498
G1 X133.185 Y122.005 E7.37313
G1 X131.849 Y120.669 E7.43597
G1 X131.358 Y118.992 E7.49409
G0 F6000 X131.775 Y118.992
G1 F900 X132.205 Y117.519 E7.54513
G1 X133.328 Y116.332 E7.59948
G1 X134.862 Y115.902 E7.65246
G1 X136.396 Y116.332 E7.70545
G1 X137.519 Y117.519 E7.7598
G1 X137.95 Y118.996 E7.81097
G1 X137.52 Y120.533 E7.86406
G1 X136.403 Y121.65 E7.9166
G1 X134.866 Y122.08 E7.96968
G1 X133.396 Y121.65 E8.02062
G1 X132.204 Y120.458 E8.07669
G1 X131.775 Y118.992 E8.1275
G0 F6000 X132.192 Y118.991
G1 F900 X132.563 Y117.723 E8.17144
G1 X133.542 Y116.688 E8.21882
G1 X134.862 Y116.318 E8.26442
G1 X136.182 Y116.688 E8.31001
G1 X137.161 Y117.723 E8.3574
G1 X137.534 Y118.999 E8.40161
G1 X137.164 Y120.323 E8.44734
G1 X136.193 Y121.294 E8.49301
G1 X134.87 Y121.664 E8.5387
G1 X133.606 Y121.294 E8.58251
G1 X132.559 Y120.247 E8.63175
G1 X132.192 Y118.991 E8.67528
G0 F6000 X132.609 Y118.992
G1 F900 X132.92 Y117.928 E8.71215
G1 X133.758 Y117.043 E8.75268
G1 X134.862 Y116.733 E8.79082
G1 X135.966 Y117.043 E8.82896
G1 X136.805 Y117.929 E8.86955
G1 X137.118 Y119.002 E8.90672
G1 X136.807 Y120.114 E8.94513
G1 X135.984 Y120.937 E8.98384
G1 X134.873 Y121.248 E9.02221
G1 X133.817 Y120.939 E9.05881
G1 X132.915 Y120.037 E9.10123
G1 X132.609 Y118.992 E9.13745
G0 F6000 X133.026 Y118.992
G1 F900 X133.277 Y118.132 E9.16725
G1 X133.972 Y117.398 E9.20087
G1 X134.862 Y117.148 E9.23161
G1 X135.752 Y117.398 E9.26236
G1 X136.448 Y118.133 E9.29603
G1 X136.702 Y119.004 E9.3262
G1 X136.45 Y119.905 E9.35732
G1 X135.775 Y120.58 E9.38907
G1 X134.875 Y120.832 E9.42016
G1 X134.028 Y120.584 E9.44951
G1 X133.27 Y119.826 E9.48517
G1 X133.026 Y118.992 E9.51407
G0 F6000 X133.443 Y118.991
G1 F900 X133.633 Y118.338 E9.53669
G1 X134.187 Y117.753 E9.56348
G1 X134.862 Y117.564 E9.5868
G1 X135.537 Y117.753 E9.61011
G1 X136.091 Y118.338 E9.63691
G1 X136.286 Y119.006 E9.66005
G1 X136.092 Y119.697 E9.68393
G1 X135.567 Y120.222 E9.70862
G1 X134.876 Y120.415 E9.73248
G1 X134.239 Y120.229 E9.75455
G1 X133.625 Y119.615 E9.78344
G1 X133.443 Y118.991 E9.80505
G0 F6000 X133.859 Y118.992
G1 F900 X133.99 Y118.544 E9.82058
G1 X134.402 Y118.108 E9.84053
G1 X134.862 Y117.979 E9.85642
G1 X135.322 Y118.108 E9.87231
G1 X135.734 Y118.543 E9.89224
G1 X135.87 Y119.009 E9.90838
G1 X135.735 Y119.49 E9.925
G1 X135.36 Y119.865 E9.94264
G1 X134.88 Y119.999 E9.95921
G1 X134.447 Y119.873 E9.97421
G1 X133.98 Y119.406 E9.99618
G1 X133.859 Y118.992 E10.01052
G0 F6000 X134.275 Y118.993
G1 F900 X134.347 Y118.748 E10.01902
G1 X134.615 Y118.464 E10.03201
G1 X134.862 Y118.395 E10.04054
G1 X135.109 Y118.464 E10.04907
G1 X135.377 Y118.747 E10.06203
G1 X135.454 Y119.011 E10.07118
G1 X135.379 Y119.28 E10.08046
G1 X135.15 Y119.509 E10.09124
G1 X134.881 Y119.584 E10.10052
G1 X134.659 Y119.519 E10.10822
G1 X134.335 Y119.195 E10.12346
G1 X134.275 Y118.993 E10.13047
G0 F6000 X134.694 Y118.988
G1 F900 X134.704 Y118.953 E10.13168
G1 X134.831 Y118.819 E10.13782
G1 X134.862 Y118.81 E10.13889
G1 X134.893 Y118.819 E10.13996
G1 X135.02 Y118.953 E10.1461
G1 X135.038 Y119.014 E10.14822
G1 X135.022 Y119.071 E10.15019
G1 X134.941 Y119.152 E10.154
G1 X134.883 Y119.168 E10.156
G1 X134.87 Y119.164 E10.15645
G1 X134.694 Y118.988 E10.16473
G1 F2700 E5.16473
G0 F6000 X134.863 Y113.57
G1 F2700 E10.16473
G1 F900 X133.185 Y113.079 E10.22288
G1 X131.85 Y111.744 E10.28568
G1 X131.359 Y110.067 E10.3438
G1 X131.849 Y108.39 E10.4019
G1 X133.115 Y107.053 E10.46315
G1 X134.862 Y106.563 E10.52349
G1 X136.609 Y107.053 E10.58384
G1 X137.875 Y108.39 E10.64508
G1 X138.365 Y110.068 E10.70322
G1 X137.876 Y111.816 E10.76359
G1 X136.611 Y113.081 E10.8231
G1 X134.863 Y113.57 E10.88347
G0 F6000 X134.866 Y113.154
G1 F900 X133.396 Y112.724 E10.93441
G1 X132.205 Y111.533 E10.99043
G1 X131.776 Y110.067 E11.04123
G1 X132.206 Y108.595 E11.09224
G1 X133.33 Y107.408 E11.14661
G1 X134.862 Y106.978 E11.19953
G1 X136.394 Y107.408 E11.25246
G1 X137.518 Y108.595 E11.30683
G1 X137.949 Y110.071 E11.35797
G1 X137.519 Y111.607 E11.41102
G1 X136.402 Y112.724 E11.46356
G1 X134.866 Y113.154 E11.51661
G0 F6000 X134.87 Y112.738
G1 F900 X133.606 Y112.368 E11.56042
G1 X132.56 Y111.322 E11.60962
G1 X132.193 Y110.066 E11.65314
G1 X132.563 Y108.8 E11.69701
G1 X133.544 Y107.763 E11.74449
G1 X134.862 Y107.394 E11.79001
G1 X136.18 Y107.763 E11.83553
G1 X137.161 Y108.8 E11.88301
G1 X137.533 Y110.074 E11.92716
G1 X137.163 Y111.397 E11.97285
G1 X136.192 Y112.368 E12.01852
G1 X134.87 Y112.738 E12.06418
G0 F6000 X134.872 Y112.322
G1 F900 X133.817 Y112.013 E12.10074
G1 X132.916 Y111.112 E12.14312
G1 X132.61 Y110.067 E12.17934
G1 X132.92 Y109.005 E12.21614
G1 X133.76 Y108.118 E12.25677
G1 X134.862 Y107.809 E12.29483
G1 X135.964 Y108.118 E12.3329
G1 X136.804 Y109.005 E12.37353
G1 X137.117 Y110.077 E12.41067
G1 X136.806 Y111.188 E12.44905
G1 X135.983 Y112.011 E12.48776
G1 X134.872 Y112.322 E12.52613
G0 F6000 X134.875 Y111.906
G1 F900 X134.028 Y111.658 E12.55549
G1 X133.271 Y110.901 E12.59109
G1 X133.027 Y110.067 E12.61999
G1 X133.277 Y109.209 E12.64972
G1 X133.974 Y108.473 E12.68343
G1 X134.862 Y108.224 E12.71411
G1 X135.75 Y108.473 E12.74478
G1 X136.447 Y109.209 E12.7785
G1 X136.701 Y110.079 E12.80864
G1 X136.449 Y110.979 E12.83972
G1 X135.774 Y111.654 E12.87147
G1 X134.875 Y111.906 E12.90253
G0 F6000 X134.876 Y111.489
G1 F900 X134.239 Y111.303 E12.9246
G1 X133.626 Y110.69 E12.95343
G1 X133.444 Y110.066 E12.97505
G1 X133.634 Y109.413 E12.99767
G1 X134.188 Y108.829 E13.02445
G1 X134.862 Y108.64 E13.04773
G1 X135.536 Y108.829 E13.07101
G1 X136.09 Y109.413 E13.09778
G1 X136.285 Y110.081 E13.12093
G1 X136.091 Y110.771 E13.14477
G1 X135.566 Y111.296 E13.16946
G1 X134.876 Y111.489 E13.19329
G0 F6000 X134.879 Y111.073
G1 F900 X134.447 Y110.947 E13.20826
G1 X133.981 Y110.481 E13.23018
G1 X133.86 Y110.067 E13.24452
G1 X133.991 Y109.619 E13.26005
G1 X134.403 Y109.184 E13.27998
G1 X134.862 Y109.055 E13.29583
G1 X135.321 Y109.184 E13.31169
G1 X135.733 Y109.619 E13.33162
G1 X135.869 Y110.083 E13.3477
G1 X135.734 Y110.564 E13.36432
G1 X135.359 Y110.939 E13.38196
G1 X134.879 Y111.073 E13.39853
G0 F6000 X134.881 Y110.658
G1 F900 X134.659 Y110.593 E13.40623
G1 X134.336 Y110.27 E13.42142
G1 X134.276 Y110.068 E13.42843
G1 X134.348 Y109.823 E13.43692
G1 X134.616 Y109.54 E13.44988
G1 X134.862 Y109.471 E13.45838
G1 X135.108 Y109.54 E13.46688
G1 X135.376 Y109.823 E13.47984
G1 X135.453 Y110.086 E13.48896
G1 X135.378 Y110.354 E13.49821
G1 X135.149 Y110.583 E13.50898
G1 X134.881 Y110.658 E13.51824
G0 F6000 X134.883 Y110.242
G1 F900 X134.87 Y110.238 E13.51869
G1 X134.695 Y110.063 E13.52692
G1 X134.705 Y110.029 E13.5281
G1 X134.831 Y109.895 E13.53422
G1 X134.862 Y109.886 E13.53529
G1 X134.893 Y109.895 E13.53637
G1 X135.019 Y110.029 E13.54249
G1 X135.037 Y110.089 E13.54457
G1 X135.021 Y110.145 E13.54651
G1 X134.94 Y110.226 E13.55032
G1 X134.883 Y110.242 E13.55229
G1 F2700 E8.55229
;MESH:sensor_holder.stl
G0 F6000 X129.665 Y110.242
G0 X128.58 Y110.242
G0 X127.883 Y116.964
;TYPE:WALL-INNER
G1 F2700 E13.55229
G1 F593.1 X127.91 Y117.5 E13.57937
G1 F599 X127.889 Y118.03 E13.60588
G1 F2700 E8.60588
G0 F6000 X127.428 Y127.428
G0 X106.87 Y128.13
G0 X106.601 Y128.4
G1 F2700 E13.60588
G1 F900 X128.4 Y128.4 E14.33092
G1 X128.4 Y106.6 E15.05599
G1 X106.6 Y106.6 E15.78106
G1 X106.601 Y128.4 E16.50613
G0 F6000 X106.87 Y128.13
G0 X107.401 Y127.6
G1 F900 X127.6 Y127.6 E17.17795
G1 X127.6 Y119.351 E17.45231
G1 X127.465 Y119.532 E17.45982
G1 X127.157 Y119.831 E17.4741
G1 X126.944 Y120.002 E17.48319
G1 X126.558 Y120.254 E17.49852
G1 X126.101 Y120.447 E17.51502
G1 X125.643 Y120.553 E17.53065
G1 X125.365 Y120.587 E17.53997
G1 X125.03 Y120.595 E17.55112
G1 X124.753 Y120.574 E17.56035
G1 X124.417 Y120.516 E17.5717
G1 X124.148 Y120.44 E17.58099
G1 X123.753 Y120.285 E17.59511
G1 X123.501 Y120.155 E17.60454
G1 X122.944 Y119.718 E17.62808
G1 X122.575 Y119.272 E17.64734
G1 X122.333 Y118.863 E17.66314
G1 X122.153 Y118.417 E17.67914
